/* XPM */
static const char *ea[] = {
/* columns rows colors chars-per-pixel */
"64 64 244 2 ",
"   c #542B0D",
".  c #492C16",
"X  c #4E311A",
"o  c #54341A",
"O  c #5D391B",
"+  c #593417",
"@  c #512C10",
"#  c #7B380D",
"$  c #633A1B",
"%  c #6B3C19",
"&  c #683815",
"*  c #743C13",
"=  c #793D14",
"-  c #6E340F",
";  c #483422",
":  c #5C3D22",
">  c #543923",
",  c #623E21",
"<  c #6D401E",
"1  c #7C4115",
"2  c #7C441A",
"3  c #76431B",
"4  c #694528",
"5  c #744622",
"6  c #7C4C24",
"7  c #724D2B",
"8  c #784822",
"9  c #78512E",
"0  c #59402B",
"q  c #3F2714",
"w  c #863A0B",
"e  c #973704",
"r  c #803E11",
"t  c #A53C04",
"y  c #94420D",
"u  c #9B440D",
"i  c #8B4414",
"p  c #854A1C",
"a  c #8C4D1C",
"s  c #854516",
"d  c #944612",
"f  c #954A15",
"g  c #9C4C14",
"h  c #934D1A",
"j  c #994F19",
"k  c #94511D",
"l  c #9B521C",
"z  c #9A5115",
"x  c #88410F",
"c  c #A64206",
"v  c #AA4205",
"b  c #AB4B0D",
"n  c #A7460B",
"m  c #B44C0D",
"M  c #B84C0C",
"N  c #B8530F",
"B  c #A44C14",
"V  c #AA4C13",
"C  c #A14A14",
"Z  c #B34E12",
"A  c #AC5215",
"S  c #A3531B",
"D  c #AC551B",
"F  c #AD5B1D",
"G  c #A45519",
"H  c #B55414",
"J  c #BB5413",
"K  c #BD5A15",
"L  c #B3551A",
"P  c #B45B1D",
"I  c #BC5B1C",
"U  c #B85917",
"Y  c #AF520F",
"T  c #BD631C",
"R  c #BA621A",
"E  c #824E23",
"W  c #8B4E21",
"Q  c #8C5123",
"!  c #8D5A2D",
"~  c #86552B",
"^  c #935423",
"/  c #9A5B26",
"(  c #935C2C",
")  c #9A5D2A",
"_  c #955726",
"`  c #885B32",
"'  c #925E30",
"]  c #A55C22",
"[  c #AC5C22",
"{  c #A35B27",
"}  c #B45D23",
"|  c #BC5D21",
" . c #9C612C",
".. c #9A6534",
"X. c #966333",
"o. c #8D653D",
"O. c #AB6223",
"+. c #A2632B",
"@. c #AA6529",
"#. c #AA692E",
"$. c #B46323",
"%. c #BB6324",
"&. c #BD6A25",
"*. c #BC652A",
"=. c #B56B2B",
"-. c #BC6C2B",
";. c #B46628",
":. c #BD712C",
">. c #AB6C32",
",. c #A36833",
"<. c #B26E32",
"1. c #BA6E32",
"2. c #A97139",
"3. c #B57334",
"4. c #BB7433",
"5. c #B2763B",
"6. c #BC7B3C",
"7. c #BB7838",
"8. c #C55D0D",
"9. c #C15513",
"0. c #C35916",
"q. c #C35C1C",
"w. c #C85D19",
"e. c #CC610D",
"r. c #C4631E",
"t. c #C9681A",
"y. c #D16A16",
"u. c #CE711F",
"i. c #D3711D",
"p. c #DC771D",
"a. c #D2650E",
"s. c #C55F20",
"d. c #C36323",
"f. c #CA6422",
"g. c #C46B25",
"h. c #CB6B24",
"j. c #C36C2C",
"k. c #CC6C2C",
"l. c #C36629",
"z. c #C4722C",
"x. c #CC742C",
"c. c #CD7A2D",
"v. c #C97428",
"b. c #D37524",
"n. c #D2742B",
"m. c #D27A2D",
"M. c #D97B26",
"N. c #C56E31",
"B. c #C47432",
"V. c #CB7433",
"C. c #C37A34",
"Z. c #CC7B33",
"A. c #C47D3B",
"S. c #CB7C3A",
"D. c #D27532",
"F. c #D37C34",
"G. c #D37C3A",
"H. c #D97C31",
"J. c #D06C29",
"K. c #E17E23",
"L. c #E17A1F",
"P. c #B47B42",
"I. c #B67F45",
"U. c #A97A48",
"Y. c #926940",
"T. c #C47F41",
"R. c #DE822B",
"E. c #D7802D",
"W. c #CD8035",
"Q. c #CC833C",
"!. c #C8833D",
"~. c #D38234",
"^. c #DB8433",
"/. c #D3843B",
"(. c #DA863D",
"). c #D4893C",
"_. c #DB8C3C",
"`. c #DC8A36",
"'. c #DE923F",
"]. c #E1842C",
"[. c #E48227",
"{. c #E38B34",
"}. c #E28E39",
"|. c #E18630",
" X c #E4923C",
".X c #E9943B",
"XX c #BC8144",
"oX c #B8844B",
"OX c #CC8543",
"+X c #CD8A45",
"@X c #C5894A",
"#X c #CC8C4A",
"$X c #C48546",
"%X c #D38C43",
"&X c #DA8D43",
"*X c #D38D4A",
"=X c #D78844",
"-X c #D79146",
";X c #DB9244",
":X c #D4924C",
">X c #DB954B",
",X c #DD994D",
"<X c #D49552",
"1X c #DB9651",
"2X c #D69A55",
"3X c #DC9B54",
"4X c #DC9E59",
"5X c #D39A59",
"6X c #CD9153",
"7X c #E39543",
"8X c #EA9943",
"9X c #E29B4C",
"0X c #E69A48",
"qX c #E29D53",
"wX c #DEA15B",
"eX c #DDA058",
"rX c #ECA14D",
"tX c #E4A155",
"yX c #EAA454",
"uX c #E3A45C",
"iX c #E9A65A",
"pX c #E5A85F",
"aX c #EBAA5C",
"sX c #EEA855",
"dX c #F1AD5D",
"fX c #DDA663",
"gX c #E2A660",
"hX c #E6AB63",
"jX c #EAAD63",
"kX c #E6AE69",
"lX c #E9AE69",
"zX c #EDB066",
"xX c #ECB36B",
"cX c #E7B06B",
"vX c #F1B66C",
"bX c #F1B467",
"nX c #ECB571",
"mX c #EEB974",
"MX c #EFBC78",
"NX c #F1BB73",
"BX c #F4BF78",
"VX c #F0AE60",
"CX c #F4C27C",
"ZX c #F6C785",
/* pixels */
"~.~.F.Z.Z.j.j.~.7X_. X].b.~.Q.>.s h 2 @   y n n Z P P *.F.(.>X-X(.F.~.F.Z.-.z./.0X7X X].b.W.Q.>.p k s @   w n n H P } j.F.=X>X:X",
"Z.F.Z.F.(.-.O.~.7X_.M.[.b.).3XQ.g f i * - d Z V I d.k.j.N.=XqXqXZ.Z./.Q.(.4.=.(.7X_.].].x.Q.,XQ.S f s * - y J V L | k.V.D.=XqX3X",
"c.x.H.`.n.g.g.x.m.M.b.b.x.;XjX3X-.B w w w # n 0.w.w.h.n.n.H.1X>Xm.m.F.~.x.g.x.m.^.^.M.b.v.-XuX4X=.g w # w w n 0.0.q.h.n.n.n.>X1X",
"Q.Q.).~.m.m.g.z.c.B.+.:.c.).:XzX5X<XXX#.#.<.A.A.OXOXOXOX:X>XxXjX%X!.%X~.F.c.g.g.~.4.+.:.~.).3XhXwX2X$X<.1.<.A.OXOXOXOX*X*X*XxXxX",
"jXNXjX0X X{. X9X>X5.2.3.=.=.2.XX3X3X3X,X1XiXzXxXBXZXmXnXkXlXlXhXkXmXzXyX.X{.0X9X:XP...3.=.=.3.A.1X1XqX1X>XyXzXNXCXCXMXmXnXlXxXhX",
"hXpXyX Xp.i.v.~.>.E Q 8 , O % i K J m 9.0.h.qXjXnXxX=XB.S.j.3XjXpXuXyX8Xp.i.v.Z.#.E Q 8 4 O % d K 9.M 9.w.f.uXjXxXnX-XV.S.j.3XxX",
"jXjX;X}.M.T F @.=.k a 5 ; > % i H J m J J 0.9XjXjXgXB.N.*.*.*XxXhXjX;X XM.d.O.@.:.k l 5 ; ; % s L 9.M K 0.w.qXjXlXhXV.j.} *.*XxX",
"zXpXaX9XZ.:.+._ #.a $ , o o 1 i u Z 9.9.J w.qXjXlXjXN.d.k.*.*XhXzXzXjX7XZ.-.+.( #.^ < O > X = d C Z 9.9.0.w.qXjXxXxX*.*.j.%.%XhX",
"uXhXxXtX$X2.! 9 ..5 + @ 3 - - g b Z 0.0.w.t.aXxXxXjX*X1.*.%.&XpXuXNXmXuX+X5.! 7 ..E $ @ 3 * - A J H 0.K w.t.aXxXxXzX#X1.j.%.-XjX",
"3XtXpXhX@XXX2.7 ` X.>.a z v.4.%X%X%X:X1X,X9XsXvXBXzXhXuXwX*XtXtXtXuXzXuXoXXX2.9 ` ! >.k G :.4.*X*X*X:X1X,X9XiXbXCXxXjXuXwX:X4X3X",
"h.r.P -.) ~ 4 > 4 E ] F L d./.3XeXjXxXNXbXyXsXF.l.l.k.D.V.V.G.D.n.h.%.;.( 7 4 > 4 E { F L g./.1X,XjXNXNXbXyXyXF.k.k.V.F.V.S.G.D.",
"M Z C D ^ > ; ; , Q S A H P :.*XjXjXzXxX7X{.8Xr.m K s.| d.| I I J K A [ W o ; > : ^ S B L T z.:XaXjXxXxX7X}.0Xg.m U | %.k.s.s.q.",
"B g D A F 5 , 8 E [ *.P r.g.F.tXuXjXxXzX7X{. Xf.Z I h.k.d.d.d.I A l D S / 4 : 4 8 { %.P U d.S.iXiXjXnXjX X{.8Xh.H | k.k.d.d.f.0.",
"C g A U $.^ a ] { [ P q.r.h.m. X XzXzX;X7XR.}.f.J q.q.s.s.s.s.q.B C P D [ Q W @./ [ %.d.f.h.m._.7XjXxX%X7X{.}.f.0.I q.s.s.q.q.w.",
"d.%.j./.%X4.7.!.A.=.%.g.b.n.b.K..XiX,X;X7X`._.x.d.d.d.j.j.%.l.l.g.g.x.(.+X4.4.A.A.1.%.g.b.b.m.[..XaX,X-X9X_._.c.d.l.l.l.j.l.l.l.",
"jXuXpXpXhXxXzXjXuXaX7X{.].R. X8X0X,X,X,X/./.B.OX:X1X*X*X2X4X2XwXjXjXhXhXhXxXxXxXtXaX7X}.{.]. X8XrX9X,X,X).W.B.%X3X<X<X*X2XwX4X4X",
">X4X4X3XnXmXzXuX3XiX7XR.i.u./.9XZ.z.j.B.z.V.j.*.*.V.S.V.G.uX4X4X2X3XeXwXnXmXxXuXtXtX7X^.b.b._.,X~.V.B.B.-.S.j.%.*.G.G.G.G.gX4X4X",
"5.XX2XeXkXkXcXhX3X9X X].y.t.Z.%Xz.&.$.;.l.$.} } } j.k.V.=X4X2X4X5.I.2X4XkXcXkXhXtXqX`.].y.g.W.-XZ.*.%.$.l.} } } *.V.V.k.=XuX2X2X",
"P.5.$X2XeXuXhXhX,XW.^.p.a.u.~.Q.&.$.$.[ %.P D } d.l.k.D.(.uXwX4XXXP.@X2X3XpXjXjX,XW.^.K.y.h.W.A.%.$.%.[ } P D | d.k.J.n.=XuXgXfX",
"@X@X@X5XhXtX,X,X_.~.u.e.a.M.v.).;.F %.P D D A U L U q.q.F.eX3X2X#X@X#X2XhXhX3X>X;Xc.u.8.a.M.c.W.$.D P I L B L U L I q.0.F.wXeXwX",
"2X2X:X:X,X`.;XZ.Z.c.R e.a.M.`.%XC.Q.OX+X#X<X*XA.OXOXOX*X3XxXuX2X<X<X:X>X>X;X;XC.Z.c.R K e.M./.%X4.A.+X*X+X<X<XT.OXOX#X*X4XxXuXwX",
"+X-.P T b.8.U F G i k -.T t.m.B.@.>.A.(.7X,X&XtXhXjXpXzXzX:XOX1XOX-.P T b.t.U [ G f k :.T t.F.4.#.#.A._.0XqX-XqXhXhXhXxXvX:XOX1X",
"x.H c c m n e d j = 2 +.l D D D k % S r.h.F.(.&X3XkXuXuX3X!.S.V.g.H v v m b y y f s 2 ,.l A A F a % S f.g.V./.>X4XlXhXuX4XA.V.V.",
"d.J c v n u u h k % $ ` p f g y g l P f.v.F.Z.%XeXhXuXtXtX%XB.j.d.N v v n u j l k % $ ~ 3 f d y h ^ } h.v.F.Z.(.uXhXhXuXuX%XV.B.",
"0.v t e t n u s * + o 7 & = g b b B $.g.k.g.g.V.4XzXjXuXtXOXB.l.K v t e t b g p 1 % o 4 O * b b C g P g.x.v.v.x.3XjXjXgXtXQ.V.j.",
"U n c b n C l 3 < + . > o 1 Y J A f $.z.z.&.&.&.>X,X3X3XqX>XS.j.P b c m b B l 3 5 O . : o s N H P g [ -.z.&.g.&.-X>X1X3XqX>X/.B.",
"7XE.x.z.4.X.` ` 7 : X , 6 O.u.].8X7X9XjXhXtXtXiXtX*XOX>X1XqX,X;X;X`.m.~.S.+.` ` 7 : X : 6 O.u.R.8X7XtXxXeX3XuXaXtX:X+X3X3X,X3X;X",
"~.9.0.9.D 3 + O O $ $   x H i.M.R. XyXtXjXzXiX%XS.7.3.5.#XqXtX9X~.q.0.q.L 1 + $ o O +   i H i.M.^.0XyXtXaXjXiX;Xz.4.3.7.+X3XqXyX",
").q.q.I F a 2 * & 6 6 2 R 8.M.t.U Z.%X).,XqX7XZ.=.@.) ..#X3X9XtX/.q.q.I F h p % + 6 3 1 U 8.i.t.P ~.;XQ.;XqX&XZ.=.@./ ..$X3X,X9X",
";XJ J 9.A s # h ^ E +.O.h.v.&.$.R =.4.+X%X)././.1.+.! ` oX3X9XjX,XK K 0.V = 1 s p E +.F T c.&.$.F ;.A.%X%XW._._.3.+.' ` XX>X9XqX",
"tXj.-.-.$.1 = k 3.3.3.;X).W.7.+./ _ >.6.$X4.z.B.A.oXoXo.oX1XuXaXeX-.-.-.=.2 * a 3.3.7.&X).A.3. ./ / >.6.!.4.z.B.6.$XoXo.I.2XqXyX",
"jXuXeX3X>X!./.Q.;XtX;X^.&X>X6.( ~ ) X... ._ O.Z.A.3.@X5X6XuXaXjXaXuXeXeX3XQ.Q.+X,XaX9X~._.-X6.X.~ ) ( ! ( / [ x.S.4.@X6X6XuXjXjX",
"(./.~.Z.Z.z.z.^.7X_.}.M.m.).Q.>.p h s     y n b Z L } l.G.=X3X>X(.F.~.Z.Z.j.-._.;X7X X].b.~.+X>.2 h 1 @   y n m H I } l.G.=X3X>X",
"S./.~.~./.4.O./.0X`.b.M.M._.,XOXl i i = = y J V L | k.V.V.=XqX3XF.~.F.F.&X4.;.`.7X_.M.[.M.).qXQ.l i i x = g J V I %.k.V.D.=XqX3X",
"F.F.~.(.c.d.g.x.m.^.b.m.c.,XuXeX=.B w w y # n w.w.q.h.n.n.F.1X>XF.F.H.(.m.v.z.m.m.R.b.b.m.,XjXtX-.j w w e w n w.0.f.J.D.F.H.1X3X",
"%X*X*X).~.c.z.z.Z.C.#.Z.^.).3XzXfX5X#X3.1.7.T.OX*XOXOX*X>X<XnXkX%XOX*XQ.~.~.B.z.Z.C.#.B.^.;X3XxXfX5X$X>.1.3.A.OX*X*XOX*X>X<XmXnX",
"hXNXzXrX.X{.7XtX<XXX2.3.-.<.5.6.3X3X3X,X>XyXvXxXNXCXMXnXnXnXlXhXjXNXjXyX.X X0XyX1XI...>.;.3.7.T.3X9XqX1X1XiXvXxXBXZXMXxXnXlXxXxX",
"3XuXiX XL.i.g.Z.#.E ~ 5 O $ & i K 9.M M 9.f.qXxXlXxX=XV.S.N.3XzXpXjXtX Xp.i.v.Z.>.E W 5 , O % f 0.9.M J 9.f.tXxXxXnX=XN.G.k.3XxX",
"uXhX;X}.M.r.O.;.-.^ k 5 ; > % i H K M J 9.w.9XjXjXhXV.N.*.*.1XxXhXjX,X}.M.r.O.@.:.l h 5 ; ; % i V J M K 0.q.qXjXjXhXB.N.;.*.*XxX",
"xXhXaX,XW.:.+.! #.Q % < : o = d V H J 9.9.0.tXzXxXzXj.k.k.} *XjXxXhXjX,XC.3.+.! ,._ 5 : > o = d n m 9.0.K w.yXzXjXhXj.j.V.l.-XjX",
"gXxXnXuX#X>.( 7 ..8 $ o 3 * * B Z H 0.0.w.t.aXvXxXlX*XC.*.| &XjXhXnXmXpX+X2.! 7 ..6 $ @ % - * B H J K 0.w.t.jXvXmXhX+X4.j.| -XxX",
"1XeXhXuXoXXX2.7 ~ X.#.a j z.4.Q.+X*X1XqX,X7XsXvXNXxXjXgXgX:XtXtXtXuXjXgXoXP.2.9 ` X.>.a z :.4.-X:X+X:X>X9X7XsXvXBXxXjXuXuX>X4X3X",
"k.f.P -.( 9 4 0 4 E ] F A d.(.3XtXjXnXBXVX0XsXF.h.k.k.D.V.G.G.D.J.f.%.*.! 7 4 > 4 ~ { ] A g./.2X3XjXxXvXdXrXsXF.k.k.k.D.V.V.G.D.",
"J H B D ^ > ; > , W D P P P -.:XjXjXhXxX7X|.8Xr.M 0.| | f.d.| I 0.H V [ Q > ; ; : ^ S L H P -.:XjXjXzXxX7X{.8Xl.Z 0.q.| f.s.I K ",
"V g L D D 8 : 4 6 { %.P P d.Z.tXaXaXxXzX7X{.8Xh.Z I k.k.d.d.d.I L S D S { 4 > 5 6 [ *.| I d.Z.iXuXjXvXlX0X{..Xh.Z I J.k.d.d.f.I ",
"V B L P } Q p / _ [ } I r.h.F.7X XjXxX:X0X^. Xf.J d.f.f.f.q.q.q.B C I P ] E p / / [ %.r.r.h.Z. X XjXxX;X_.R.7Xh.K q.s.f.q.q.q.q.",
"g.d.g./.%X7.7.A.C.-.g.v.b.b.b.[..XiX,X%X0X_._.x.d.l.d.j.N.l.l.l.l.g.x./.%X7.A.!.A.-.g.g.b.n.v.[..XuX,X%X;X`._.x.I l.l.j.j.l.l.l.",
"pXpXjXpXhXzXxXhXtXaX0X X{.].}.8XrXqX,X,XQ.).B.OX:X:X*X*X2X4X<X4XjXjXhXwXhXxXzXjXuXaX7X X{.R.}.7X0X,X>X,XQ.Q.B.Q.>X:X<X*X<XwX4XwX",
"<X4X2X4XxXnXlXuXtXtX7XR.u.b._.9XZ.x.z.B.-.G.j.*.j.V.G.D.=XgX3X2X<XwX3XfXnXmXkXuXtXtX7X|.i.M._.,XZ.x.B.z.j.V.j.*.j.D.G.D.=XhX4X4X",
"5.I.2XeXkXkXzXhXtX,X_.].y.t.W.;Xz.&.$.$.*.} } } %.k.V.V.=X4X4X2X5.I.2XeXkXxXkXhXtX9X_.R.t.v.~.;XB.g.%.$.&.$.$.} } V.V.V.=X4X2X4X",
"I.P.@X5X3XtXhXjX>X).}.K.a.h.~.Q.%.P } [ } [ D } d.l.k.D.&XuX4XwXI.P.#X1X3XhXlXxX9X~.{.K.e.t.F.Z.%.%.%.[ } P D I l.k.J.D.=XuXhXfX",
"@X@X#X2XpXtX,X-X).~.u.e.a.p.c.W.$.F P P D A L U I I q.q.G.wX3X4X@X@X#X3XhXhX3X>X;Xm.i.e.e.p.v.Z.$.F P } D B L I U 0.r.q.F.wX4X4X",
"2X2X#X:X>X_.;XC.B.v.R e.e.p.`.Q.C.!.+X*X#X:X*X$XOXOX#X:X3XxXuX3X2X:X#X:X>X;X7XZ.B.z.T e.8.p.`.Q.7.!.OX+X#X<X:XOX#X#X*X<XuXnXpX4X",
"%X:.P r.b.K U $.G i l -.R r.m.3.+.#.A._.7X7X&XuXhXhXhXzXvX:XOX1X%X=.F U b.r.T $.z i l j.K T H.C.+.+.S.&X7X,X&XtXhXhXhXvXNX1XOX1X",
"x.H v c b n y d S = 1  .l A H P a % F f.v.x.(.%X2XlXuXuXeXQ.V.S.x.J c c m n y d j = 2 / l D A P a $ D f.h.x./.-X3XhXhXuX4X!.B.S.",
"r.J n t t u g h ^ % O ~ p h g y f k } g.v.F.F./.4XxXhX3XuX%XB.V.l.N v c c y d h a % O 9 2 f A d f k F h.m.H.Z.OXtXlXhXuXtXOXB.j.",
"K v t t t n g s % + X 4 & * g b C j P g.x.v.v.Z.3XzXzXuX3X/.x.j.K v t e t b f 1 = + X 7 O # g b g j P g.v.g.x.Z.3XzXjXeXtXOXV.l.",
"P B n n b V l 3 < o q > @ = Y N A j $.z.x.%.%.&.,X3X3XqXqX-XS.j.P n n Z V A l 3 < @ . > @ 1 H J H G %.z.z.&.&.j.qX3X3X3XqX>XQ.z.",
"7X^.m.c.C.#.' ` 7 : . : 6 $.i.]..X X9XjXuXtXiXiXtX-X+X>X3XqXqX;X'._.H.Z.Z.#.' ` 7 : . : 6 F u.R.8X7X9XxXhXtXiXjXqX%X*X2X3XqXtX>X",
"~.9.0.0.D 1 + O + O + @ i H i.R.{. X0XtXjXjXtX_.Z.C.7.3.OXqXiX9Xm.0.0.0.P 2 + O O + O @ x H i.p.R.7XyXtXjXzXiX&XZ.4.7.6.*XqXaXyX",
"/.q.I q.P h 2 < % 6 2 1 K 8.b.t.U F.-XQ.,X9X&XZ.;.@. .,.+X,X,X9X).K I I L h 2 % + 3 2 1 N 8.b.u.U ~.-XQ.,XqX;XZ.=.@./ ,.+X,X,X9X",
",XK H K A r * s a Q @.] r.b.&.$.F ;.C.*X*XZ.~.Z.1.+.! ` I.-X,XaX%XK H 9.A r = s a Q @.O.r.v.&.$.$.=.C.+X%XQ.~.F.=.+.! ` P.1XqXsX",
"uXj.%.-.=.2 1 h <.3.C._.Q.7.3./ / ^ >.6.!.3.:.:.!.@XI.o.I.1XqXaX4Xj.*.j.=.2 1 k 3.3.C.;X_.A.3.+._ ^ >.7.6.3.:.B.!.@XoXY.U.2XtXaX",
"jXpXtX1X3XOX).%X,XqX X^.%X:XXX` ~ ) ( ..( / ;.Z./.7.@X6X6XhXVXjXaXuXtXeXeX+X*X+X,XiX;X^.;X:XXX~ ~ ) X...! / $.Z.%X6.#X5X6XuXVXaX"
};
