/* XPM */
static char *ea_backroom[] = {
/* columns rows colors chars-per-pixel */
"64 64 114 2 ",
"   c #0C0C07",
".  c #0D0E08",
"X  c #14130C",
"o  c #1D1D12",
"O  c #332B0F",
"+  c #232215",
"@  c #262518",
"#  c #2C2B1B",
"$  c #362E11",
"%  c #3C2E11",
"&  c #302E1D",
"*  c #373011",
"=  c #3B3114",
"-  c #32311E",
";  c #3C3519",
":  c #343321",
">  c #383724",
",  c #393925",
"<  c #3E3D29",
"1  c #433515",
"2  c #463817",
"3  c #483917",
"4  c #463A19",
"5  c #4B3D1A",
"6  c #453F22",
"7  c #4A4017",
"8  c #4E411D",
"9  c #52431E",
"0  c #58471F",
"q  c #56491D",
"w  c #5B4C1E",
"e  c #5E501F",
"r  c #63531F",
"t  c #69591F",
"y  c #474124",
"u  c #4E4222",
"i  c #42412D",
"p  c #544521",
"a  c #584720",
"s  c #564923",
"d  c #5B4C23",
"f  c #544D29",
"g  c #5B4E29",
"h  c #5E5123",
"j  c #5E5129",
"k  c #464530",
"l  c #484731",
"z  c #4D4B33",
"x  c #504F35",
"c  c #525136",
"v  c #604F25",
"b  c #635423",
"n  c #675824",
"m  c #6C5C24",
"M  c #63542B",
"N  c #695728",
"B  c #66582C",
"V  c #6A5A2B",
"C  c #705F24",
"Z  c #705F28",
"A  c #665932",
"S  c #6A5D33",
"D  c #746225",
"F  c #796625",
"G  c #7D6A25",
"H  c #75642A",
"J  c #796729",
"K  c #77682C",
"L  c #7D6B29",
"P  c #6E6332",
"I  c #736434",
"U  c #766936",
"Y  c #7E6D30",
"T  c #72643A",
"R  c #76693C",
"E  c #796C3E",
"W  c #7B6E41",
"Q  c #7E7145",
"!  c #816E26",
"~  c #816E29",
"^  c #857127",
"/  c #897527",
"(  c #8D7827",
")  c #85722A",
"_  c #89762A",
"`  c #8D792C",
"'  c #927D2C",
"]  c #847331",
"[  c #887630",
"{  c #8D7B30",
"}  c #917E30",
"|  c #807342",
" . c #96812D",
".. c #9A842E",
"X. c #9E892F",
"o. c #958231",
"O. c #9B8631",
"+. c #9E8932",
"@. c #A28C2F",
"#. c #A28D33",
"$. c #A69136",
"%. c #A99436",
"&. c #AE9937",
"*. c #A69239",
"=. c #AA9639",
"-. c #AE993B",
";. c #B29D3C",
":. c #B5A13E",
">. c #AF9C40",
",. c #B39E40",
"<. c #B6A241",
"1. c #B9A543",
"2. c #BAA846",
"3. c #BBA949",
/* pixels */
"+.+.....#.$.' ' @.@.$.} #.#.=.=.#.*.%.-.>.=.%.>.>.;.-.>.,.<.<.,.>.,.1.;.;.;.;.1.1.1.1.3.3.:.:.;.:.3.:.:.:.1.1.:.:.:.1.1.:.:.1.3.",
"+.......@.@.' @.@.' %.%.%.#.=.#.#.*.*.*.-.%.%.>.>.%.=.=.%.,.,.,.-.,.,.&.;.;.;.:.:.:.:.1.1.:.,.:.:.1.1.1.:.:.:.:.:.:.:.1.:.1.1.3.",
"X.......' @.@.' ' } %.} %.%.#.%.#.#.#.%.#.*.=.%.=.&.=.=.%.,.,.,.,.;.;.;.&.&.:.:.:.,.:.:.1.1.,.;.:.1.:.3.:.:.:.:.:.:.:.:.1.3.1.1.",
"'  .X...' ' @.' @.$.$.=.>.=.=.} =.*.=.%.$.=.-.-.=.=.-.=.,.>.,.<.<.<.;.,.:.:.:.:.:.:.1.:.,.1.1.1.1.:.3.3.1.:.:.:.:.:.:.:.1.1.1.1.",
"' ' ' ' @.' @.@.%.' %.;.} =.%.} $.=.*.#.%.%.#.%.=.%.=.>.>.=.,.=.;.,.;.;.:.:.;.;.:.&.;.,.:.:.:.:.:.1.3.:.1.1.:.:.:.:.:.1.1.:.1.1.",
"' ' ( ' ' @.' @.' %.} } } =.%.;.*.#.#.*.#.%.#.%.=.=.%.%.>.,.,.;.>.;.,.;.&.&.;.:.;.&.&.:.1.,.;.;.:.:.:.;.:.1.:.;.;.:.1.1.:.:.;.1.",
"' ( ( ' ' @.' ' ' &.%.' } %.} ;.#.#.%.%.#.@.#.#.%.,.%.#.>.,.=.=.} :.;.;.=.&.:.,.&.;.-.-.,.1.,.;.:.;.;.;.;.;.:.;.:.:.1.:.:.;.;.:.",
"' ( '  .' @.' @.%.} =.' %.} ' %.#.#.$.$.#.@.#.#.#.=.%.%.%.,.=.=.&.;.;.;.=.=.;.;.&.&.;.;.,.,.<.:.:.;.;.;.;.;.:.:.:.:.1.:.:.:.;.:.",
"' ' ' ' ' @.' %.' ' %.} %.%.} %.#.*.$.#.%.$.$.$.%.%.-.;.-.-.;.>.} ;.;.&.;.&.&.;.;.&.;.,.;.,.<.<.;.;.,.&.;.:.;.:.1.1.<.3.1.,.,.<.",
"' ' %.' %.' ' ' ' %.' &.%.' %.' #.#.#.#.#.%.%.%.$.*.-.*.-.*.-.,.:.:.%.;.%.&.;.-.;.,.,.;.-.<.,.<.;.&.;.;.;.;.%.,.,.1.,.,.<.,.,.;.",
"' ' ' ' ' ' ' ' ' ' %.' ' ' ' &.@.@.@.#.#.#.#.#.$.=.#.#.*.-.*.*.=.&.;.%.%.%.=.;.;.:.&.-.,.,.;.;.;.&.&.;.&.;.%.%.%.;.,.,.;.;.;.;.",
"@.' ' ' %.' ( ( ' %.' ' ' ' &.' ' } @.#.$.#.@.#.=.#.#.@.#.-.=.$.} ;.:.} &.' %.-.;.} %.;.-.%.=.-.&.;.-.&.&.:.;.%.#.%.;.=.%.%.;.,.",
"' ' ( ( ' ' ( ( ' ' %.' ' ' &.' ' ..@.@.*.#.#.#.*.#.@.+.@.#.*.#.&.;.-.} &.%.%.&.&.} =.-.=.} -.&.&.;.%.-.%.,.-.%.%.%.%.-.%.%.;.;.",
"' ( ' ' ' ' ' ( ' ' ' ' ' ' ' ' +. ...@.#.#.#.O.#.#.@.@.@.#.#.$.;.} -.-.' %.&.&.&.:.=.=.;.:.%.%.%.&.%.;.-.;.-.%.%.%.;.%.%.=.%.;.",
"( ' ' ' ( ( ' ' ' ' ' ' ' ' ' &.#.O.#.#.O.*.*.$.#.$.#.#.*.#.#.*.&.&.' ;.%.&.;.&.&.:.:.=.&.-.%.=.%.%.-.,.,.-.%.=.%.-.%.%.,.;.;.=.",
"( ( ( ( ' ( ( ' ' ' ' ' ' ' ' ' O.O.O.} O.+.O.#.O.#.#.#.#.#.#.#.} ;.%.' %.' ' %.%.} ;.-.-.%.%.%.%.%.%.#.%.-.=.%.=.-.#.%.%.%.;.;.",
"( ( / ( ( ' ( / ( ( _ _ ' ( @.#.} ' } @.} ' @.@.#.*.+.+.#.*.O.+.$.#.=.#.O.#.#.*.@.#.%.%.=.*.#.*.%.%.' %.' :.;.&.&.-.;.=.%.;.&.-.",
"( / ^ / ( ( ( / ' } ( _ ( ( ' #.O.' } O.' ' ' ' O.>.+.O.+.+.O.O.+.#.=.*.#.#.=.=.#.@.@.#.=.=.%.*.%.%.@.%.%.&.;.' ' ;.;.&.} &.' %.",
"/ ^ ^ / / ( ( ( ` } ( ( ( ( ' } } } ' @.@.} #.' O.$.#.#.+.+.O.O.+.#.*.$.#.#.=.=.#.#.#.#.*.#.$.$.%.%.#.%.} &.:.' ;.;.;.%.' &.&.&.",
"( ( / / ' ( ( ' ' ' } ` _ _ ' ' O.O.} @.#.#.@.#.O.O.+.$.+.+.+.O.X.#.#.#.>.>.*.*.*.#.#.#.#.#.*.*.' %.%.#.%.&.%.&.&.' ' &.&.' &.-.",
"^ ( ( ( / / } ' } ' _ ( ' } ( } #.' } } } #.#.#.' ' O.@.#.O.@.@.#.#.@.$.*.#.=.#.=.$.$.#.#.*.#.$.=.%.%.%.%.} ' ;.} &.;.' %.%.%.%.",
"_ ! ^ / ) / _ ) ^ ' ( ^ _ ( ` ' ' ' ' @.#.' } } } ' ' ' O.O.#.#.@.+.#.#.@.@.#.#.#.#.#.' @.@.} O.%.' %.' %.%.%.%.%.' &.&.' %.' %.",
"( ^ ! ^ ^ / ^ ^ ! _ ` ) _ ( } ' ' ' ' ' @.} ' ' O.' ' ( ' O.#.} X.+.#...' @.O.#.#.@.@.@.#.@.@.} ' } %.%.' %.%.' ' ' %.} ' &.%.%.",
"` _ ^ ^ / ! ! ! ! ) ( _ _ ` } ( ( ' ' _ } @.' ' @.' ' ' ' ' #.@. .O.+. .@.' ' #.} } #.#.#.@.' @.' ;.' ' ' %.' %.' %.' %.%.} ' %.",
"( ! ^ ^ ^ ^ ! ! ! ^ ( ^ ` { _ ' ( _ ( _ _ ' } } } ' ' ' ' ' ' } O.O.X....... ...' #.@.#.#.' @.' } =.' %.' %.%.' ' ' ' &.' %.' &.",
"! [ _ ` ) / ^ ! ! ^ _ _ ` ` _ ( ' ( _ / { @.#.@.( } ' @...' ' O.O.+. .X... .X. .#.$.#.' @.#.' ' %.} %.&.&.' ' %.' %.%.' &.' &.' ",
"! ^ ~ ^ _ ^ ^ ^ ^ ^ ^ _ ! ^ [ ^ _ _ / ~ ( ' ' } ' } ' @.' ' } ' ' O.' ' .... . .@.' ' @.' @.@.@.' %.&.' %.' ' &.%.' ' &.%.' ' %.",
"^ ! ! ~ / _ / ^ ! _ _ ^ ! ! ^ _ _ ^ ^ ( ' ' ( ' ' } ( ( ' ..' ( _ ` o.' ' '  .+.@.' ' ' #.@.} } ' ' ' ' ' %.} %.' ' ' ' ' ' ' ' ",
"^ ! ! ! ! ! _ ^ ! / _ ! ! ! ! _ _ / / ` ( [ / / ' ' ( ( } @.( ` ^ /  . .' ' ..O.' ' ' ' $.' ' ' %.#.' ' ' ' %.} ' } %.' ' } ' } ",
"! ! ! ! ! ^ ^ ^ ! / ^ ! ! ! ! [ ) / / ( ^ _ ( ^ ( ' [ ' { ' ` ' / / '  .` '  . .' ' ' ' ' @.' ' ' ' ' ' ' } } ' &.' ' ' ' ' ' %.",
"! ! ! ! ^ ! ! _ ) ) ) [ ~ [ _ ^ [ _ _ ^ ( _ ^ / ' _ _ _ [ ( } ' ( ` ` ` {  .`  .@.' ' ' ' ' @.' ' #.#.' ' } ' ' ' } ' &.' ' ' } ",
"! ! ! ! ! ! ! ! _ ) ! _ [ _ / ) ` _ ` [ ^ _ ( _ [ _ ( ( ' ` ' }  . ._ o.` '  .` ' ' ' ' ' @.' #.' ' ' ' ' ' ' ' ' %.' ' } &.' ' ",
"! G G ^ F G ! G L _ ~ ) [ ) ) _ _  .G _ G _ _ / G _ G  .o._ _  .` ` ` ` ) ( o.' _  . ._  . . . .o._  .o.` ` ' ` ( ' ' } ' O.' } ",
"^ G F F ! ^ G G G L _ ^ L ^ ` ` G L / )  .L G L  . ./ G G o.o._ ` ` { ` _ ` } o.o.[ _ o.o.) _ ` o.o.` ) ` } o._ _ ` } o.} ' } O.",
"! G F F G ! G G G G ^ L L ^ ` ) G / G  ._ L L _ o.G / _ G  .o.L ^ { ` ) ` ` _ ' o.) ) o. ._ _ _ ` o.o._ ` o.` ` ` _ ' O.} } o.O.",
"G F F G F G G F G G ^ G L G L ) L G G G _ _ _ Y _ _ G  .G L _ L ) ^ ` _ _ _ `  ._ o._  .o.) o._ ` ` _ ` { `  .` ` ` ' ' ' o.' o.",
"F G ! G G F ! ! ~ ^ ! ~ ) ) G ^ _ G _ L  ._ [ o.) _ _ L _ ) _ o.[ _ ) ` ` ` ` ` _ o.o._ [ o.[ o.` ` { o.{ ` { o.` } ' ` } o.} ' ",
"C G G G ^ G G ! ! L ~ L G Y L L L G L G _ Y L _ _ ) L  .^ G ) ) L _ ) ) ` ` _ ` o._ [ o._ _  ._ _ _ o.` { { ` ` ' ` _ { } { } ` ",
"G G G G G ~ G G G ~ G G F F L G K F G L  .G L G _ Y G _ G L G ^ L ^ _ _ ) ^ _ {  .L L  .o.) _ _ ) _ _ ) ) ` ` _ _ ` { ` _ { ` } ",
"F C F C F ! G ~ L ) G D F D D K F F K o.G L L G L o.G G ^  .G G L ^ _ ` Y L { { / L ^ L [ _ / Y [ _ ^ Y ) ` o.` _ { { _ _ _ ~ _ ",
"C C D D D G G L L L F C F F F F F K L L L G  .G _ _ L Y  .G G G ^ L / ^ G L ) _ ) _ _ L  .Y ^ _ _ _ ) _ ) _ { _ _ [ ` ~ _ _ ~ ) ",
"F F D D G G L L D F F n t F G F F L G L L L G L _ G o._  .G G F F G ) L ^ Y ^ ) [ ) )  ._ ) ) _ _ { { ~ ) ` ) _ } _ ~ { _ _ _ _ ",
"t F F F K K F D D C C h m Y G F L  .L L G G L  .L  . .K P P P P P P U U Y ^ ) ^ _ / _ _ ^ [ L ) { _ { ` { _ { { _ } [ _ { _ [ ~ ",
"F t t F K K m n m D C b K Y D G G L Y L K D F K Y Y G q l x c c x x z x f G _ L Y Y L L ) _ Y ) [ _ _ { ~ _ ` ~ ~ [ { _ _ _ ) _ ",
"F C m Z K Z m n m D K H K Y F G G L L Y L F D K _ Y G 4 i l i : & < k k f F L _ L L L / _ L L ^ ) [ ~ L ~ ` [ ~ ~ ~ [ [ ] ~ ] [ ",
"D C C m K K m m b m K H K F C D F F G L L F C F Y F D 6 i , o . . X , l f G L ) _ Y Y Y L L L L ~ ) ~ L ~ [ ) ~ ~ ~ ~ [ ~ J ~ [ ",
"m C C b Z K C n b m Z m P K C D D t D G F Z C Z L J m ; < # X o o . @ k f C F K F K L L L D D K L L L ~ J ~ ~ ~ ~ ~ ~ ~ L J J ~ ",
"t D H m Z H C h b m m h Z H e t C t D D F G K F F J D ; : # @ - - @ + i y m D D F F K F F D C F J J L ~ ~ J J J L J L J ] ] J H ",
"t m m m Z n m b n t m e n P m e r m D C G G D F G H C ; > : : : > - : < y m Z Z C ~ C C C C ~ ~ D Z J D F L L L L L F L L L K L ",
"e r t n Z C m e r C C e h m m n r m C C D D t t D Z n = : > > - # : < < y n D F C C C ! ~ C N C D D C m m Y Y K K D K K H H D D ",
"r w w w n m b e e m m n n V m n m m r t e r r e n n b ; - : : : - > , , 4 n D J C N C C ~ N C C J C C m m D K Z m Z K H D m n m ",
"r q w w h m e e e n b h n n b n b b q w q q w w h b h * + + + o o o + @ ; C J J C C t N ! N Z Z F C C D D C K C m m H C m m n m ",
"t w q w h q q h b r e h n h b e h e 8 q w q q 8 q e e 7 * * * O O * O = q J J J ! C C ~ N ~ N Z C F F D m m C m m n b t b b b m ",
"r t e w q q h n n b e q s j h q e h w e w q h 9 9 9 e e e e t t C t r m m Z Z t N C C C N ~ ~ N m m D F n r b m m m b r b b b r ",
"w w w q 8 7 8 8 q q 9 9 9 h h d q h w e q q d 9 9 8 8 8 q q q r t t r r v e b b r b N t N ! N v b b t m e w h r b b e w e t r r ",
"5 8 9 8 7 8 u u f u s f f f j d s s s h d s a p f 8 8 y u f q h j j j h d s v v v N N N N N v g b M b M h h j j j j j d h j d j ",
"5 0 0 v 0 a 0 0 q s d d v v v v b N N N N N n b v v v v v b N V Z I I I U U U R | | ~ | | | | | | R W | W | Q | Q R R T T T T P ",
"5 5 5 5 5 9 5 9 9 q a a 0 9 a a s b v v d v d v v w v v v d d v b j b M A V V V A A g g M M A | g g g A S T T T A M M M M j M A ",
"5 5 5 a 0 5 9 p s a a d p p a a p 9 p 0 0 d 0 0 0 0 d 0 a a a s p s a a d d d d a a p p 5 p g g 5 5 g 5 x M M g j g j M g g g v ",
"5 5 5 5 5 5 9 5 p p p p 9 p 9 p 9 9 9 9 9 9 9 9 9 9 9 9 0 9 9 9 9 9 9 9 p 5 p 5 p 5 5 p 5 5 5 p 5 g 5 5 j j g g s s s s d d d s ",
"5 3 3 3 3 5 5 5 8 5 9 5 5 p 9 9 9 5 5 9 9 p 5 p 9 5 9 9 9 9 9 9 9 0 9 9 5 a 5 5 5 5 5 5 p 5 5 5 5 5 g 5 A g g g v 6 g 5 p s s g ",
"3 3 3 1 1 2 3 3 5 5 5 5 5 5 5 5 5 3 5 5 5 5 5 5 3 5 5 5 p 8 5 9 5 5 5 5 5 5 5 5 5 5 5 5 5 5 5 5 5 5 6 g g g g g g v g s d p s g ",
"1 1 1 1 1 1 = 1 2 2 2 2 2 2 5 5 3 1 3 3 5 5 5 5 4 5 5 9 9 5 5 5 9 9 5 5 3 5 5 3 5 5 5 6 5 5 5 5 5 5 5 M g g g j g g g g g g g g ",
"% % % % % % % % 1 = 1 % 1 1 2 2 1 1 3 1 2 5 4 5 4 5 5 9 9 5 5 p p p p 9 5 5 5 5 5 p g g s s 5 6 A g 6 A M M g g j 6 g 5 6 6 5 6 "
};
