/* XPM */
static const char *no[] = {
/* columns rows colors chars-per-pixel */
"64 64 184 2 ",
"   c #84561B",
".  c #83581F",
"X  c #905E1E",
"o  c #9B651F",
"O  c #875B20",
"+  c #8C5F23",
"@  c #8D6127",
"#  c #946425",
"$  c #986726",
"%  c #9A6826",
"&  c #946629",
"*  c #96682A",
"=  c #9B6C2C",
"-  c #9F702E",
";  c #966B30",
":  c #9C6F31",
">  c #9F7132",
",  c #A26D26",
"<  c #A16F2B",
"1  c #A67027",
"2  c #A4722D",
"3  c #AA742D",
"4  c #AE782F",
"5  c #B3772F",
"6  c #B47A2D",
"7  c #BA7E2E",
"8  c #A06F32",
"9  c #A47432",
"0  c #A97731",
"q  c #A67836",
"w  c #AC7A34",
"e  c #A47638",
"r  c #A5793B",
"t  c #AC7D3B",
"y  c #B27D34",
"u  c #B97E31",
"i  c #B27F39",
"p  c #AD7F41",
"a  c #BD802E",
"s  c #AF803E",
"d  c #B58036",
"f  c #BB8235",
"g  c #B4823C",
"h  c #BB853B",
"j  c #BE893D",
"k  c #C0832F",
"l  c #C9862F",
"z  c #CE892E",
"x  c #C28534",
"c  c #C98630",
"v  c #C58935",
"b  c #CC8B35",
"n  c #C18739",
"m  c #C48B3C",
"M  c #CA8E3B",
"N  c #D18E36",
"B  c #D08E39",
"V  c #C7903F",
"C  c #CC913E",
"Z  c #D69236",
"A  c #DE9A37",
"S  c #D3943C",
"D  c #D9963B",
"F  c #D6993F",
"G  c #DC9A3E",
"H  c #AE8142",
"J  c #AB8248",
"K  c #B48542",
"L  c #B98741",
"P  c #B68845",
"I  c #BC8A44",
"U  c #B28648",
"Y  c #B5894A",
"T  c #BC8D4A",
"R  c #BF904C",
"E  c #C38D43",
"W  c #C88F40",
"Q  c #C18F49",
"!  c #C69145",
"~  c #CB9344",
"^  c #CF9846",
"/  c #C5934B",
"(  c #CA964B",
")  c #CD994C",
"_  c #D19643",
"`  c #D49A45",
"'  c #DB9C44",
"]  c #D19749",
"[  c #D39C4B",
"{  c #D99E4A",
"}  c #C59651",
"|  c #C99750",
" . c #C69853",
".. c #CC9B53",
"X. c #CC9E5A",
"o. c #D29E52",
"O. c #D09F58",
"+. c #DFA146",
"@. c #D7A04E",
"#. c #DBA24D",
"$. c #CEA05C",
"%. c #D5A154",
"&. c #DBA453",
"*. c #DEA855",
"=. c #D4A45B",
"-. c #D9A65A",
";. c #DCA95C",
":. c #E1A245",
">. c #E2A64D",
",. c #E6A94E",
"<. c #E9A94A",
"1. c #E1A652",
"2. c #E5AC54",
"3. c #E3AA54",
"4. c #EBAD52",
"5. c #E9AD53",
"6. c #E0AB59",
"7. c #E1AC5B",
"8. c #E2AD5B",
"9. c #E8AF59",
"0. c #E8AE5B",
"q. c #EEB257",
"w. c #E7B05C",
"e. c #E7B25E",
"r. c #E6B05E",
"t. c #E9B15B",
"y. c #EBB15A",
"u. c #EAB25D",
"i. c #ECB35C",
"p. c #F0B65D",
"a. c #CFA360",
"s. c #D5A661",
"d. c #D6A660",
"f. c #D4A661",
"g. c #D8A760",
"h. c #D7A860",
"j. c #D6A964",
"k. c #DEAD60",
"l. c #D9AA64",
"z. c #DBAB63",
"x. c #D6AA69",
"c. c #DDAE68",
"v. c #DAAD68",
"b. c #DFB066",
"n. c #DFB066",
"m. c #DFB168",
"M. c #DEB16D",
"N. c #DEB16B",
"B. c #DFB674",
"V. c #DFB471",
"C. c #E1AE62",
"Z. c #E3B163",
"A. c #E4B160",
"S. c #E0B067",
"D. c #E4B367",
"F. c #E4B264",
"G. c #EAB665",
"H. c #EBB563",
"J. c #EEB966",
"K. c #E4B56B",
"L. c #E2B46C",
"P. c #E3B46C",
"I. c #E9B769",
"U. c #ECBC6E",
"Y. c #EDBA6B",
"T. c #F2BB65",
"R. c #F3BC67",
"E. c #F1B963",
"W. c #F1BD6A",
"Q. c #E2B672",
"!. c #E4B974",
"~. c #EDBE75",
"^. c #E3BA79",
"/. c #E4BB7A",
"(. c #E3BC7D",
"). c #E5BE7E",
"_. c #E4BB7B",
"`. c #E9BE7A",
"'. c #F5C06D",
"]. c #EFC177",
"[. c #EAC07C",
"{. c #F2C172",
"}. c #E7C082",
"|. c #E6C083",
/* pixels */
"=...,.2 F b ..j h ! A.Y =.n E ).%...3 4.h ~.P 7.E ! j [ 7.j v y o.g &.~ [ j i ! ~ g >.* u.! d. .;.C m j I m./ S.E ! =.&.^ ^ E ` ",
"X.X.2.3 S b ..! &.m #.T d.M ( ).&.) 3 <.j ].T &.j ) h _ 7.E _ h o.w 3.[ O.f h ) ^ g t.* 3.E =.) ;.^ ~ i P `.R k.E E f.) m -./ ` ",
"....e.i n x =.E -.m >.T %.[ ) |.&.[ w <.d U.P &.h ..f _ Z.( [ n o.2 >.[ =.j ! ..) s R.$ >.j ..( &._ ! g I B.P S.j j ) [ ! j.( #.",
"| / D.K n f %.E -.! e.! %.` E ^.%.[ 0 _ 4 t.t *.j =.( ` S./ S m %.= ' ) l.m ~ =.( t R.$ :.f =./ &.M ~ / / M.P L.j f } [ ^ -.( *.",
"} Q K.P ` V ..) &.! G.) -.S f M.[ o.0 ` w t.9 %.I d.[ ~ ;.h S v %.< ' / c.~ ( X...r R.< ,.f =./ k.M _ | ..(./ L.j j X.&.) =.T 7.",
"/ Q Z.T ` V ) %.&.! H.%.=.b f Q.) =.9 ' i Y.9 [ E l.[ ~ k.g S v ~ 2 ' I k.[ ! ..=.9 R.1 ] y j. .S.~ _ ../ ^./ ;.h j X.*.` %.K 7.",
"T I ;.R #.m ! &.&.! J.=.f.x h ).( %.w +.i {.e [ ( j.[ ~ ;.L m x ^ w #.L k.[ E } z.9 J., ~ 3 x./ *.] E ( I ^.( -.h n X.&.~ %.i [ ",
"P L %./ &.m ! [ %.E H.=.j._ m |./ o.g 1.i {.r i Q f.( [ 8.L m n ` i &.g -.[ m T k.w J.< >.f x./ ` [ ! E P !.) &.d n =.%.[ %.g ` ",
"P K ..( 1.! / ^ [ j 9.%.j.{ ! }./ %.I 3.w J.r ^ E ..E ^ *.L S n [ y { t &.~ h s C.K {.2 3.y $.) [ [ ( E I L.( #.y x f.[ _ %.L #.",
"Y K ( ! 1.! I m [ I 2...=.[ E ).} ! h 3.9 G.r %.E } j ~ %.L ` h %.y ` t &.m h H k.T H.< 0.i } ..-.[ ! E h m./ *.y n j.^ ^ o./ *.",
"U p } E #.E } E ( g #.R X.C j Q.T =.i #.9 F.r &.L T h j [ g [ j =.y S t %.g j H ;.g 7.= 6.g / ! =.E j j g j.K ;.0 f X.! ~ ( E &.",
"p r T r T t T T T U / Y T P P X.Y X.r ( > ..r } H T P P / t / K T t / g Q t T H } 9 ..> ..t T T / K P P t } s / K P T T T P K T ",
"& * 9 = y 2 r 9 w 9 j r K 3 * T 9 P $ u . E # h * 9 % < t 2 y * g @ 5 * h * w ; L * ( . m = t 9 i = 2 = * P = g * * t 9 w 3 2 d ",
"H H T L { j / h ~ g *.P } v w ;.g =.g { @ H.: #.i g d h ( i _ i ) < M t h.9 h r -.> W.& ,.w ..g ~ 5 h L r j.g [ 9 y } j E n f #.",
"T Y ! ! { n X.m C I 8./ O.C j b.E -.E &.= Y.s &.E I m E ( j { E =.w S T j.9 n J L.K J.w t.h ..E ^ n E | K v.E &.j j X.! ( ( ~ &.",
"T P ~ E #.m =.( C I Z.} %.S n Q./ &.E ` # H.g 6.E T ( ^ [ E #.! o.w ` I =.= j Y L.T H.w i.j ( ( [ m E ..K j.I &.I j X.[ ~ [ ^ 6.",
"P K [ E *.~ d.[ S ! ;.R =.C m )...%.~ ` X ,.g A.( E ..o.%.E +.~ %.y ` I o.9 ~ U k.T 3.< i.I ..) ;.V E ..t j.L #.E m $.[ _ @.( 1.",
"T L %.m 6.^ f.[ ` ( -.R =.C M |.%.#.M ' # 2.w D.) Q / [ ) h ' ~ %.y ` h ( 9 &.T k.T J.9 9.j ....k.^ m ..9 } h #.! ! ..%.[ %.! 1.",
"/ I *.n 6.~ X.[ [ ) %.T =.M M |.=.#.M ' = H.w 8.[ / ! ~ %.f ' m [ g [ f ~ 2 1. .-.P J.3 ,.h =.%.b._ j / 9 =.m #.~ ( O.#.[ %.h 6.",
"} / 8.m 9.~ ..o.#.~ ! T =.M m ).-.*.m ' w U.w &.[ } j ~ %.n F j %.j { h [ 2 >.$.l.g R.9 <.n f.-.k.~ g m r m.! *.) ) =.%.[ #.g #.",
"X...H.j 1.m E [ &.( m P X.v m ^.&.*.n G i U.i ' [ } h M -.m S f ( j { h o.2 >.%.z.w q.2 :.m j.-.k.~ f h w b.( #.) o.=.[ [ ` 3 { ",
"=...G.h #.m E [ ;.[ ! T ..x m ^.[ &.x D g Y.g +.) } f M k.E N h O.f ' d o.w &.) z.2 4.2 :.~ h.[ &.C h j r L.! ` ( O.=.^ [ &.3 ` ",
"X...t.g #.m / ^ *.[ ! T } a M Q.) *.f Z w J.g 6.( / u n k.m b h =.h { d [ t *.( ;.t E.9 :._ d.! %.V j E K L.! [ E o...M { #.w ' ",
"....3.w #.C ( ( @.^ ! T / 7 M B.( *.k D 3 G.g 8.(  .u f -.E S j -.h %.g %.g &.R %.t '.9 G _ ..E ;.^ E E K Q.! #.E ( =.m ` #.i { ",
"..( 3.2 ` ` ( ! %.~ ~ T / 4 h L...&.f F 2 G.i [ / X.n u =.! n j -.h #.L &.L %.T =.s '.9 _ M =.o.k.[ ( ( P `.! &.~ ! d.m S %.h ' ",
"..! 3.2 ` [ ) g E V ~ P } u v Q.=.;.m F 3 e.r *./ $.~ f %./ ` m ;.j { I *.T %.K ( s T.< n u h.;.;.[ ( E P [.) 6.~ E j.~ S k.E m ",
"../ 2.2 ` ` ..P %.( ^ P } h V ^...) n F 3 6.e 7.T X.] f %.E ' n 8.E #.E ;.E o.g m 9 p.= ' v =.&.&.[ ~ m K `.) *.! ! x.~ C h./ ~ ",
"| g 2.2 ` _ O.I o.^ o.T / m ~ ^.} o.7 S 0 7.t A.P ..[ j h.I ' j S.( &./ C.! ^ g ~ - q.* ' n =.o.*.[ E m g !.( &.E ~ d.[ C h./ [ ",
"/ i 6.0 ` V =./ %.) %.T E ! ( V./ &.6 N = ) t I.P / ( n v.! { h S.^ *.E =.n ~ K ( = i.* ' a %.) *.[ E E i !.! &.! ( =.[ V ;./ [ ",
"..h 7.0 m m =...-.( %.T / ( ^ L./ -.6 N < %.r I.P K ) m l.( { j 8.^ #.T -.h ! K o.9 t.= >.x =.( &.` m j t !.T *.) [ =.^ V %.( [ ",
"| I 9.w [ [ =...&.~ @./ E ^ ` d.| k.7 N < 3.t A.t 8 ( ~ h.! #.m 8.~ #.E k.j ( P =.= >.$ 3.m =.( &._ m f i K.g ! ) %.=.~ V [ ( #.",
"/ L D.K [ ~ ..O.;.! &.T E [ ! v...h.7 N = 9.w 8.i g ! m =.! #.m ;.m #./ k.m ( T -.2 4.2 1.~ -.( ) C m n g !.g #.( %.=.V M ) ) &.",
"/ K Z.K &.~ ..O.h.! 7.Q E %.! M./ -.7 l = 9.t A.g Q n n =.( ' f *.h #.! ;.~ / T -.# ,.0 >.~ =...v.M m m Q `.L &.( *.d.! V ( [ &.",
"E g *.I 7.( / ) h.T 8.I h &.( L.! o.v b * 2.w D.g / f x =.[ ' u &.d #.W %.~ ( P %.# 4.3 1.~ [ / V.m v m / K.L 7.! %.=.m n ) o.&.",
"E g *.E Z./ E o.-.g [ / ( [ ( M.( %.x 5 = t.w 8.h E u 7 =.o.' y *.i { ~ @.( ( P -.= p.3 1.~ o./ M.m b h / Q.I 8.! %.O.j m ( [ #.",
"I g #.E A.! E ) =.g 7./ ) ' ! k.! %.v 5 * i.g &.h m g f [ ^ ' u &.d ' [ &.^ ^ R -.9 i.3 +.~ =./ ;.m M ! / !.! C.~ [ =.! ^ ( ) [ ",
"E h &.j 9.! / ! ;.L 8...o.' m k.( %.M y ; H.g D.j I / ( %.~ +.y %.y S [ *.V ~ / k.9 i.3 G C =./ &.m _ [ I Q.( 8.( [ =.) [ I ! { ",
"( I *.j 9.! ( I h./ D.) O.` j L.( &.C u = i.L K.E E ! ~ O.! >.j F.i S [ #.M m T k.e i.0 G M =.( k.m S [ g K.) *.E ~ f.[ [ I ( %.",
"..Q 6.j 8.( ( g h...K.( ( ' j Q.) -.S m * ,.g D./ ( ) ~ ~ n >.E K.w n ~ [ m m T ;.9 p.w +._ ;...M.V M ^ g !.) ;.m m =.^ ~ ( [ &.",
"../ 6.h 8.) o.g -...K.o.( ' m ^...-.C v $ <.g D./ ( o.( [ n +.E D.i M ( [ V ~ L ;.9 i.w +._ o./ Q.V M [ s !.( &.! E X.~ ^ ( [ *.",
"X./ 7.j 8.) o.i &.) F.%.( ' E Q...=.M x * q.w D./ ( o.! [ n ' j C.g S ^ %.~ ( K ;.9 i.3 ' C ( / P.[ ~ %.r L.! #.( ( ..! _ ) %.&.",
"../ *.j 9.! ( g [ ( F.%.O.#.E M.( o.m x : i.3 C.E ( ~ E -.m S d 8.h _ ..-.( ( P k.= p.2 F m %...L.%.[ %.9 b.! #.( ^ / ! C o.%.%.",
"../ 7.j 9.m ( j ` ! A.o...#.E M.( ^ n b = E.0 8.E ( M m ;.E S y &.j ` ..;.! ( K -.= i.2 +.m =.( m.[ [ [ 9 %.! &.! ^ ( ! _ %.o.[ ",
"| / 7.j 9.E E E [ E 7.^ ( #.E m.! ) f B = i.w 7.E ( n f k.! S w #.j [ ..h.! ) g [ * i.2 +.m h.) ;.( _ ~ r =...-.j m ( ~ S %...[ ",
"/ I ;.I 6.E E ! [ ! &.! m [ E m./ ..6 B = 4.w 8.I / h f -.( B y #.j ` / h.h I w ~ * 4.< :.M =./ -.! ~ M H c...h.j E X.[ C o.) ` ",
"P K ;.T #.m i I o.j #.I m h g z.Q ..3 B = ,.w -.i m m m %.E M i %.y C L =.g h t W = 9.% +.n o.! &.m M m P z./ =.j m X.~ M ^ ) [ ",
"K g %.K [ h g i ( g o.P / n g =.K / 3 v = %.9 ) w j L h ..g M 0 ..w m K ..g / K ..9 *.* ` f ( I %.E m E K ..g ) h h T j m ! E ( ",
"r w P 9 T 9 P r K s L H K g i T K T e E > / 9 I e P t K T t L r I w h t P t K e / 9 / : E w P K L g g g t R r L i s K t L g g g ",
"9 9 E 2 M 2 3 < d t E r t 6 2 / 2 g X c + ( @ ! # , 3 2 T 9 6 $ E < 6 e } = w > / O _   C , g w E 3 w 4 > / w I 2 3 s w y d w f ",
"P g %.h &.h ! h ( T &.P / V n h.g E $ D $ >.9 &.0 x E E =.h b w &.d C K d.j / t k.= 5.$ >.f ( / -.m E m H k.E =.I j  .( ~ ! ~ [ ",
"T L -.E &.m ..E o.T [ T / ~ ! l./ ( , Z 2 >.w ;.w M ) ! o.j b g k.E ` T =.E ..9 o.2 u.< :.f ..) k.^ ! V K b.( =.! E $.^ ~ V ~ %.",
"} I ;.h #.m o.( =.L [ T ..( ! z...X.3 F 9 u.w C.i v / ! ` h z d C.( [ T &.( ..3 [ 0 H.2 A f =...b.o.~ ~ T Q.( [ ! ! a.` C x ^ &.",
"..T C.L #.m ) ( =.L ~ Y ..( ! ;.O.X.3 M = J.t -.i n I ! ` j b i C.[ [ E %.~ ) w { w i.3 G u j.X.k.[ ~ M T Q.! %.E ( =.~ ^ x C [ ",
"T I C.g ` f ! ! =.P ! P ..) ! ;.%.X.w F & H.g %.g h f M [ E j 3 *.~ [ / %.E [ g { 4 i., n y h...;.( [ M g m.E [ j ! X.^ ~ m ~ ~ ",
"g h C.w &.m m E =.g E P ..^ ! =.) ..w G # e.g ! h m u m %.( _ 3 { m ` ..-.V ^ K #.4 9., ' m &.E =.E [ m t L.j [ h m X.[ ^ ! [ @.",
"T h 7.0 #.~ ! h %.j #./ ..^ m =.[ / 3 G * u.g ^ h ~ j C -.( [ 3 [ n [ =.h.V ~ T *.i 3.= :.C %.h %.j ~ y H L.g [ h m ..[ ^ V @.&.",
"/ E 6.2 #.~ o.j [ g &.( ..M h z.^ ( 4 G = J.i ` g ! E _ %.! [ 0 %.m { =.l.C V T S.d ,.$ +._ -.j ( ( [ E P m.g [ m ! | ~ C m #.*.",
"../ 1.2 #.~ o.j ~ L 7...X.M j N.! ! i ' : Y.g ` g ~ ( [ *.E [ y %.E { %.=.m m T C.g 1.$ +.~ h./ [ ( ~ E I M.t ~ ! ! ..! ` m { *.",
"..( 3.9 &.~ o.j M K 1.( =.v f M.! ( i :.= I.h ` i %.~ ~ ( h { y [ E #.O.=.m m T k.g ( # :.v j./ &.[ ( ! T V.K %.E ! X.E m C ` &.",
"..( e.w #.h ( E C i +./ g.M h Q./ ..y ' * H.I [ i %.~ f %.I [ j _ j #.( %.m ! / k.g 9.$ :.M =./ ;.[ ~ ! P v.K %.j ~ $.j f ^ ^ [ ",
"( ( D.g >.7 Q ! [ d #.T -.~ m ^.( O.w ' * G.I &.h [ M f ;.L ` E M f ` ! ! j ! / -.K 9.$ >.m =.} ;.#.W ! / M.P &.f m $.( C ^ ~ [ ",
"/ / D.L >.f E ( %.d 1.L %.~ j ^.) O.w +.= I.L *.m ~ n m -.h _ E ! f [ ! [ j ~ / =.g 3.$ 3.m l./ *.[ E E L X.L ;.u h X.^ C [ ~ [ ",
"} / A.K +.n E ( %.j *.P O.v m Q.[ ..0 :.2 G.g *.E m h W k.h C m [ 6 n ( o.j m I ( g >.$ ,.m d./ *.~ m m P f.K k.h j  .[ ~ [ ! [ ",
"X.} Z.t ' n ( j W ! 8.U O.v m Q.o.( 2 >.2 7.w 7.E E h [ S.I b f o.h _ ) [ h w / ( g ,.& 9.m f./ *.C m m P v.T k.m m ..%.~ [ ! [ "
};
