/* XPM */
static char *no_backroom[] = {
/* columns rows colors chars-per-pixel */
"64 64 52 1 ",
"  c #8F7928",
". c #947E2B",
"X c #96812D",
"o c #9A842E",
"O c #9D882F",
"+ c #968130",
"@ c #9B8631",
"# c #9E8932",
"$ c #A38C2E",
"% c #A6902F",
"& c #A28D33",
"* c #A69136",
"= c #AA9436",
"- c #AE9836",
"; c #A69238",
": c #AA9639",
"> c #AE9A3B",
", c #B09A37",
"< c #B29D3D",
"1 c #B5A13F",
"2 c #B8A43F",
"3 c #AF9D40",
"4 c #B39F40",
"5 c #B6A242",
"6 c #B9A543",
"7 c #BDA946",
"8 c #BAA748",
"9 c #BEAB49",
"0 c #C0AC46",
"q c #C1AE4B",
"w c #C4B047",
"e c #C4B24D",
"r c #C9B54E",
"t c #C1AF50",
"y c #C6B452",
"u c #C9B753",
"i c #C7B954",
"p c #CBBA55",
"a c #CDBD5B",
"s c #D0BF5C",
"d c #CFBF60",
"f c #D0BF61",
"g c #CFC05C",
"h c #D1C15D",
"j c #CFC061",
"k c #D3C363",
"l c #D6C866",
"z c #D5C669",
"x c #D6C86C",
"c c #D8CA6E",
"v c #D7C971",
"b c #D8CB71",
/* pixels */
"$&,===3>*=<,,8666qq28626yqttdytuutuauuafspddpafssakfssssskasakha",
"o$=*==:<=-,-16466886671qtertuutuuquayuyafupapsfsfskksssahkssskha",
"&=*=3>:4<,,16168868q87qeqtpyuupteyauadausfasfffffdsffssfkffzkgkk",
":&=,444<411516q8qq6q0ttqtayaurpuufuaddffsffffffvzzzszfllhkckllhl",
"%&:==>5<,88118716076tyqtayeratradauadadfaszzfszzdfzffzcfszkskzkh",
"%*=%==<4<414862160q688qyutueuarryuaatudffffffflfffkzfffszzksjzzk",
"=>=%%--44<48922266qe8qtpteeeuaatyafuuyaazkffkvksfsfczsklblkskhxz",
"=>=%===44<<8826766tq8qquteyuefatuafauaaazzkfkvkfzfkczfklckhlkkxx",
"==,&==,4><8<166840tqttqtyqtyududdadapapfffzvfzzsfffczzczzlsflfbz",
":=<>=<4<486686q8qtttyyutuypyapdfdddffffzfzvvzzclfcbzbbbclzlzxbxb",
"<:=>44,<84<6668ttqtytqytqpaatpfpufdafffffzfzczkzbbzzbfkccfzcxlzb",
"=<,=<<44<<<186888qtqqqtayupuufpuuudasfffzzffkzzfcczzlzklclzxzzcx",
"$,4<,<44,,<<68668qy00qquayypdauuuaafsafzzfssslvzffbchkkhfccfzbcf",
"$=4=,<84<1116q668tq00qqtayyydauparsfaaszksffslvkfzcchkkslclllbcl",
".,,=44<61<11866080t000ttytdupappuufaafffzfffszkkvflclkflcffczzcl",
"<,=44411816776qttq0qqqayydddaafaaffafzzfkzfzzzzzbvzzczzczlcbcxcb",
"<=<<=48418866006et8weuutiaiddpsffsaffszzdlxxlhllfbbfccclfcclcbzl",
"&,<,=,84167280768e08eeqtpuypdppasasfasslkazzglclfvvvfccllclhlczl",
",1<==,<66116q08700ut80quurrupaauuafsapaskajklxlhffzvcsflllsshlbc",
",4,,=,,68128880806ut00rpwwriqsapuakausaukkggzvhhhfsccsflcshlhsbv",
"><,=,=,11658066877tqq0qrwwywyappuafpuapskhkfhlhhksslfflflsslhhcc",
">,,>,,1168886qq7qtqqruteiwwuaiigfaasaaafadlzhllhshllfccfsksslcll",
"4>,<1111888887qeqqqytereeyupupapafaaaggaazjkllhhllffcfllkhfkzllc",
"<<:<6<<66<18767q870e88turyiuypayeaapagapakaahhhhlssflssskssllfll",
".1<<,34811<2876770e08q0yuyqyigrryuaauppahhphplhprhhlphhhkhshllch",
",,<<3<85114<6q667eq70q0tateraiwrrrpsppphhrphrhhrhrhhrhrrslhhhllh",
".,,34355411<86666qq70q0tyeqeurryqwpprapghrhprpphrrrhhhhrssphsllh",
"66.>44458116656q660qq0ereeuywiryrupuiharphrrhhrphhrhhprhspshhshl",
"1,34444,1286168qqq0qqeeweurureiiipiphhharhphhrrhhhhrhhhhrshhlhhh",
"<.<,=,4,<66<17858q88qe00rq0rreepgrypirpghphhrrhhrhhrrhhrshhpshhh",
",,<=.=<4<<<<28126q080000000wrreyeeairrraprrrrhhrrrhhrhhrsprhhhhh",
"<4-=<,=5<<34821122qq660q000wwueeeiprrrwrhprrhhrrhrhhhrrrhrrpshlh",
"><**:%;5<<359<<11197677e2ww97ieeeipreeerayyyadpupuuhauuparrupphl",
"%-;%*;:<353311><-276797ew797weeyyiirqq0epudapppippagpapparwrrphs",
">*>>=>>>388515<12627ee97ew9eeeyiiiyueqruyadappiiuaapassaparrrssh",
"-;%->>:><3<51<16626966e77eee9ei9eyeeeruryayyaipappupapusppapaash",
"*;%;==><3>>>5>>56596512777999e999wyeweerpytyiipyirpapyuuappaaass",
"O;>;;:<<;;;;<11117721<<79777ei9976ee90eeytyypyyyruaaupyraappahsu",
"O*>%;=<>=;>*>1><58616116e667we79979ye9eyyqyyqpiyrriiepyqyapppfsu",
"%;*;*;=>:>*->:351565512626727w9999ee99e9eyqqtyyeyeyppyyyiyypppsp",
";%&;3:;>>:><>>165<17558769e97w99eee9eee9eyyyir9eyyeypyyappaaapaa",
"&O;:*:;;><<>><1>55<567617929929e9w7eq0yeqriiyeeeepyqeyputaaupaup",
"O#;&O;;;;<>:>1>>>11>52<67267e779977e770eqeyre9r79queqeytadtttaay",
"#;%&OO;-::=>1<>>><551<176266997267e9767eyyeqeeee70qyyqqyiyteyuaa",
"%;OO;O&>>;;<<:>>>:85<>59<276699629e66622ey9eeiweqq7puqqyprqeqrap",
"O;OO;&&::;;:<=:>:>8<<1261121696667762622e9e99ie9q7qytqqqyqqerydy",
"O#&;O%3;>3>;:>>;>155881261<696599777766779re9er98qyytyyqqrqqtayy",
";O%;;;*;3>>>=><<<<<8558156665697797777776e9ee7eyqeeqptypqeyyyytd",
";%O&;;O;3;**;*><>>444<4466465665167667667q77qq0eeq0eqqqqyqeyeqyi",
"O*&O##;;%;**>:**4444,:<664448655<1655669q7777qq766qy777qyq9qqyyy",
"O&&OOO;;&;*&=>:=>44:>::484<496<51-661569747827e626eq7777qy999y99",
"XOOOOO&&&&*&;;;:=44=3>,44<<466<<1>56<55766766077067027629e899yq8",
"OOOO#O#;***;>*;>::43:>44><4><454111>585466667q67762797279799q9tt",
"&OO;#;&&**;;%;>>4:;3334:44>4445656<45565<060977967770777699yy99y",
"oXO&O;##%;;*#;;&3:&=>>==4>&>4><56<45<<65460765776765677116779989",
"XXOOOO;#O&&#;;#&&:3*====,&&=<<<44455:<<7744615626266162166266988",
"@OoooOO;OO@;;&&;&*3;&&33:***:44>>584>>>6955556<<4<59511572<11299",
"@OXo+++;#O+;;##&&&;&.=:3*:3::4>>>55>35<>955456><6<<9555561<61<99",
"XooXOo+&#;##;###.;*&3;=3:=::<>:3334>>345855551><<<58556562211676",
"XXO+X@&&;;;;;;#@&=&&:3==<>*:4>345334435555865355<666556666666677",
"XXXo#O+#;##;@#;;&&;&.;=;:==>:>4333>>455346<444<446<5655855786169",
"XXXXOo+&#++&###;&&;&..&;&*=::>3>>>3>>43>4<><4<<><<<6111155665156",
"XOoX+oO++++O&&##&:=*&..3&&&*:>:;;&>3;>>34::::<4>><<<>>11785>5661",
" oOX++@++@oo;;&&&3&.$&.&:&&&:*&::=33>;>3>::=&:4>>>5<>44<55>>>66>"
};
