/* XPM */
static const char *so[] = {
/* columns rows colors chars-per-pixel */
"64 64 185 2 ",
"   c #8E8E8C",
".  c #96948E",
"X  c #969692",
"o  c #999690",
"O  c #9A9A96",
"+  c #9D9D9A",
"@  c #A09F9B",
"#  c #9FA09E",
"$  c #A2A29E",
"%  c #A4A5A2",
"&  c #A8A7A3",
"*  c #A7A8A7",
"=  c #AAAAA6",
"-  c #A7AAA9",
";  c #ACACAA",
":  c #B0AFAB",
">  c #AFB0AE",
",  c #B2B1AE",
"<  c #AEB0B0",
"1  c #B4B5B3",
"2  c #B8B7B3",
"3  c #B7B8B7",
"4  c #B9B9B6",
"5  c #B6B9B9",
"6  c #BCBCBA",
"7  c #C0BDB7",
"8  c #C0BFBC",
"9  c #BFC0BE",
"0  c #C2C1BE",
"q  c #BEC1C2",
"w  c #C4C4C3",
"e  c #C8C7C4",
"r  c #C7C8C7",
"t  c #C9C9C6",
"y  c #C4C7C8",
"u  c #C7C8C8",
"i  c #CCCCCB",
"p  c #D1CDC5",
"a  c #D0CFCC",
"s  c #CFD0CF",
"d  c #D3D1CE",
"f  c #D9D5CF",
"g  c #CFD1D1",
"h  c #D4D4D3",
"j  c #D8D7D3",
"k  c #D7D8D7",
"l  c #DAD9D6",
"z  c #D5D7D8",
"x  c #D7D9DB",
"c  c #DDDCD9",
"v  c #DDDCDA",
"b  c #DCDDDB",
"n  c #DDDDDB",
"m  c #DCDCDA",
"M  c #DEDDDB",
"N  c #DEDDDA",
"B  c #DFDEDB",
"V  c #DEDCD9",
"C  c #DADBDC",
"Z  c #D9DCDD",
"A  c #DADCDD",
"S  c #DBDDDD",
"D  c #DBDCDC",
"F  c #D9DCDE",
"G  c #DCDDDC",
"H  c #DDDDDC",
"J  c #DCDDDD",
"K  c #DDDDDD",
"L  c #DCDCDC",
"P  c #DEDDDC",
"I  c #DCDEDD",
"U  c #DEDEDC",
"Y  c #DFDEDC",
"T  c #DEDEDD",
"R  c #DFDEDD",
"E  c #DCDDDE",
"W  c #DCDDDF",
"Q  c #DDDFDF",
"!  c #DCDEDE",
"~  c #DEDEDE",
"^  c #DFDFDE",
"/  c #DEDFDF",
"(  c #DFDFDF",
")  c #DEDEDF",
"_  c #DCDCDB",
"`  c #E0DFDD",
"'  c #DFE0DF",
"]  c #E0E0DF",
"[  c #E1E0DF",
"{  c #DBDEE0",
"}  c #DDDFE0",
"|  c #DEDFE0",
" . c #DEDFE1",
".. c #DCDFE0",
"X. c #DDE0E1",
"o. c #DEE0E0",
"O. c #DEE0E1",
"+. c #DFE0E1",
"@. c #DFE0E0",
"#. c #DEE0E2",
"$. c #DFE1E2",
"%. c #DFE1E3",
"&. c #DFE0E2",
"*. c #DFE2E3",
"=. c #DFE0E2",
"-. c #E0E0E0",
";. c #E1E1E0",
":. c #E0E1E1",
">. c #E1E1E1",
",. c #E2E1E0",
"<. c #E2E1E1",
"1. c #E2E2E1",
"2. c #E3E2E1",
"3. c #E0E1E2",
"4. c #E1E2E2",
"5. c #E0E2E3",
"6. c #E1E2E3",
"7. c #E2E2E2",
"8. c #E2E3E2",
"9. c #E2E3E3",
"0. c #E3E3E3",
"q. c #E3E3E2",
"w. c #E4E3E1",
"e. c #E4E3E2",
"r. c #E3E4E3",
"t. c #E6E5E3",
"y. c #E1E2E4",
"u. c #E1E3E4",
"i. c #E1E3E5",
"p. c #E2E3E4",
"a. c #E2E3E5",
"s. c #E2E4E4",
"d. c #E3E4E4",
"f. c #E3E4E5",
"g. c #E3E5E5",
"h. c #E2E4E6",
"j. c #E3E5E6",
"k. c #E2E4E7",
"l. c #E3E5E7",
"z. c #E4E4E4",
"x. c #E4E5E4",
"c. c #E5E5E4",
"v. c #E4E4E5",
"b. c #E4E5E5",
"n. c #E5E5E5",
"m. c #E6E6E5",
"M. c #E4E5E6",
"N. c #E5E5E6",
"B. c #E4E5E7",
"V. c #E5E6E6",
"C. c #E4E6E7",
"Z. c #E5E6E7",
"A. c #E5E7E7",
"S. c #E6E6E6",
"D. c #E6E6E7",
"F. c #E6E7E7",
"G. c #E7E7E7",
"H. c #E4E4E4",
"J. c #E8E7E6",
"K. c #E7E8E7",
"L. c #E8E8E7",
"P. c #E4E6E8",
"I. c #E5E6E8",
"U. c #E6E7E8",
"Y. c #E7E7E8",
"T. c #E6E7E9",
"R. c #E6E7E8",
"E. c #E7E8E8",
"W. c #E7E8E9",
"Q. c #E7E8E8",
"!. c #E8E8E8",
"~. c #E8E9E8",
"^. c #E8E8E9",
"/. c #E8E9E9",
"(. c #E9E9E9",
"). c #E8E9EA",
"_. c #E9E9EA",
"`. c #E9EAEA",
"'. c #E9EAEB",
"]. c #EAEAEB",
"[. c #EAEAEA",
"{. c #ECECEC",
"}. c #EAEAEA",
"|. c #EFEFF0",
" X c #F0F0F0",
/* pixels */
"i k x k k h k l l h h l / m x k a t h x h l / h h j k h h i i h k h h l l h j l / / ` h k k h x l m m ] 5.` / E l i r t r y t i ",
"+.u.u.5.E x x x x m / +./ / E A / +.h.M.M.M.[.M.M.h.h./ x E E } u.U.M.M.M.[.M.M.M.[.[.5.h.M.[.[.[.M.M.M.[.[.[.E.M.5.+.5.u.h.U.u.",
"h.M.u.5.+.+.+.u./ m / / / 5.5.} / 5.h.5.5.M.M.M.M.M.M.M.h.M.h.M.M.U.M.K.E.[.M.M.[.J.[.[.M.E.[.[.M.M.M.M.5.U.x / } M.5.M.M.M.h.5.",
"h.M.M.u.u.h.5./ h l j x / +.5.h.M.h.M.5.5./ / h.M.M.M.M.u.M.h.h.5.u.u.M.u.h.M.M.M.M.[.M.M.M.[.[.[.M.M.U.[.A / M.x M.5.5.u.h.h.u.",
"m 5.5.5.M./ / r.5.5.5.5.5.5.5.M.M.5.5.M.E.M.M.M.M.M.M.r.[.L.[.[.M.M.M.M.M.M.[.M.L.M.[.5.5.5.5.5.M.M.M.5.M.h.h.x x 5./ +.+.u.5./ ",
"5.5.M.M.h.u.E 5.M.E.[.K.[.M.L.5.M.M.5.` M.[.[.[.[.[.M./ {.[.M.M.[.E.M.M.[.[.[.[.[.[.M.[.M.5.M.[.[.M.M.r.M.[.M.5.x M.U.u.u.U.M.M.",
"/ j x 5.D x h d x ] m l l m m / / 5.c d d l m w.5.5.w.r.5./ / x / x } 5.u.M.5./ 5.c l l d t j j l m / 5.5./ x h i i k x +.5.x 5.",
"% + X X O O O + $ + $ % @ O % = & $ $ $ @ . O $ & = % + % $ & = : 1 1 , = : , ; = ; = $ $ $ $ $ $ % = ; = % $ O O O X + % $ + % ",
"h h h t i i d / x x / ] ] x c l j h k c l h / l j D x h k x / 5.5.M.m j j j l j l ] m c m x / / E +.+.5.} k k / x 5./ x h h m l ",
"5.5.M.M./ 5.M.5.M.[.L.M.[.[.[.[.[.[.[.[.M.E.l 5.M.M.5.U.M.M.M.5.U.U.U.U.M.U.E.E.U.E.E.E.E.M.h.u.h.u.5.+.u.h.h.M.M.h.5.h.E.U.M.M.",
"u.h k 5.] m ] r.M.M.[.M.M.M.M.M.M.[.[.[.M.M./ 5.5.] ] 5.M.M.5.M.M.M.E.M.[.[.[.M.E.M.5.h.M.[.[.[.M.K.M.M.E.M.U.u.u.u.+.+.#.#.x x ",
"5.x k x / / m M.M.M.M.5.5.r.5.5.5.M.J.M.M.M.[.M.M.M.M.w./ 5.M.M./ h.M.M.J.[.[.M.5.5./ / M.M.M.M.M.M.[.M.r.5.m x / +.+.5.5.u./ +.",
"/ / 5.l l ] ` 5.M.w.r.5.] 5.M.M.M.M.5.] 5.K.J.M.M.M.M.M.M.5.5.l k A { u.h.M.5./ z z t / 5.5.M.5.M.M.M.r.] / x m ' 5.5.5.D x h x ",
"[.5.] M.c ` w.[.[.[.J.J.J.r.[.J.w.L.[.M.h.] r.] V r.[.L.M.r.{.[.M.M.U.h.U.[.M.5./ x h M.M.[.[.L.J.{.{.{.{.L.[.M.M.[.[.K.[.[.[.M.",
"t t w w 6 t t w w w e w w r w 6 6 8 0 6 4 = = = $ : r t i w 6 t w 6 w u r t t u w q w i u t i t w t r 0 6 0 w w 0 w r t t r 4 6 ",
"4 0 0 w w w 1 ; 6 6 4 6 6 2 1 4 4 4 6 4 4 6 6 1 2 4 6 6 6 2 2 4 w r r 6 2 8 8 6 4 4 6 6 6 6 4 6 6 4 1 , , 1 4 4 , 2 6 6 6 = = = ",
"r.{.{.{.{.[.r.[.r.M.[.{.{.[.M.{.E.w.M.M.M.{.{.[.[.[.[.[.L.[.{.{.{.[.r.] l r.{.{.[.[.M.M.[.{.{.{.{.[.[.J.M.[.M.r.J.{.{.[.{.] r.r.",
"M.M.] ] 5.[.M.M.U.[.5.r.` r.M.M.M.] 5.M.M.M.K.5.] 5.M.M.[.U.J.M.M.M.5.] M.M.M.[.r.5.M.[.[.[.[.[.[.E.U.M.U.U.M.M.U.U.M.h.M.E.U.E.",
"m M.[.M.5.M.h.M.M.M.5.d c ] [.[.5.h.U.M.h.h.h.M.M.M.M.M.M.M.[.M.M.L.[.[.[.[.` w.[.M.r.r.r.5.M.M.M.[.E.E.E.[.[.[.[.M.M.M.M.5.M.M.",
"5.M.+.u./ x } E 5.u.h.x +./ M.M.+.+.u.+.E A +.+.5.u.5.5.5.M.M.5.] 5.M.[.[.r.M.M.M.M.M.M.5.w.M.M.M.M.+.5.M.M.5.M.[.r.M.r./ 5.5.5.",
"/ 5.+.+.h s k z / 5.M.U.M.E.h.u.5.z z z k l / u.5.h.M.E.E.[.[.[.[.M.M.[.M.M.M.r.5.5.m ` 5.M.M.M.M.M.h.} U.M.M.M.M.5.h.l l 5.+./ ",
"E l / m x E } A / m h h h d k k x / +.+.z k z z x ] M.r.r.r.r.M.] w.r.M.M./ m c m m f p d 5.M.[.].{.[.M.M.E.M.M.M.l M.h./ +.+.} ",
"; % # O + O + # O O + + O o O + $ $ + # + O O X O $ % = $ + + ; ; = , ; 1 1 , ; , , , : ; 2 6 4 4 3 6 4 1 4 4 1 1 , 1 , = % = ; ",
"i a h s i h i k h h h h k z x x k x x E E E / m l x x x x h h h k z h h h h h k k k k d i i h x k x h i i k x x x h i i h k h d ",
"h.h.h.U.U.[.[.M.[.[.M.U.E.M.E.E.M.M.U.M.5.M.[.[.M.K.[.[.[.5.[.J.M.[.[.[.[.[.U.M.M.h.5.h.h.E.E.M.E.M.#.Z E E E E x +.5.5.u.M.5.5.",
"E.M.h.u.5.h.M.M.U.M.M.M.M.M.M.M.5.5.x D / M.[.M.r.M.5.M.E.l M.[.M.M.M.5.5.5.h.u.+.} +.h.u.u.h.M.M.u.M.h.u.5./ k / 5.h.u.M.5.r.5.",
"5.r.M.M.M.M.M.5.5.5.5.r.M.M.M.M.M.M.M.5.m [.M.M.L.L.M.M.M.w.M.M.] w.5.x ] / / +.} x u./ 5.5.5.M.M.M.M.M.M.M.x m l c ] / x / m m ",
"M.M.E.M.M.M.r.5.5./ / ] 5.5.5.5.5.M.r.5.] ` 5.M.r.M.r.5.M.M.[.L.E.M.M.M.M.M.M.u.m m M.r.5.5.5.5.5.5.5.5.r.] d d p p l m j 5.5.M.",
"[.[.[.[.[.[.M.M.U.#.U.E.w.m m [.{.{.[.[.[.{.[.m d ` M.M.[.[.[.{.].{.{.].].{.[.[.[.[.r.[.w.c M.M.M.5.] M.M.{.w.` {.E.5.` ] r.K.M.",
"0 w w t e 0 w w w w w w 6 0 0 w t t t e t i w w i t w w t i i t r w r w r t w 0 w 6 4 4 , : , ; = : , 0 w t w w i t w 0 0 w w w ",
"% % $ * - - * - * + % * % - $ $ O X O $ + = ; ; ; % + % - ; = ; ; ; % % $ = ; : ; * = = ; - % $ * $ $ * - % - - * * # # % + + * ",
"{.[.{.M.[.U.h.5.} M.U.h.h.h.5.h.U.M.5.r.] E.].{.E.U.U.h.u.#.{ { +.u.h.].[.{.{.[.M.{.[.[.[.5.M.E.M.U.E.M.5.c 5.h.5.5.j l E.U.u.E.",
"h.M.M.` 5.M.M.h.+.+.+.} } } u.u.u.u.U.h.h.h.u.5.5.u.h.z z } +.+.} E +.+.E / 5.M.M.M.M.M.M.5.5.M.5.5.h./ / / m M.5./ / 5.h.+.h.u.",
"u.h.M.5.5.+.+.u.u.+.+.+.u.#.+.u.h.j l / h h.h.u.M.M.[.M.[.E.U.h.M.5.E h k 5.5.M.M.M.M.M.] r.M.L.U.5.l / / l 5.M.M.h.5.u.Z g Z } ",
"h.5.h./ 5.+.Z E u.u.u.u.u.5.k / U.M.5.5.5.M.5.M.[.[.M.[.J.M.[.[.M.M.M.i x 5.` ` 5.5.M.M.5.] m ] f m t l E.5.M.M.M.h.+.5.{ Z Z { ",
"h.M.M.h.5.+.+.} 5.5.5.h.M.5.] m h.h.5.U.[.M.r.5.M.[.M.M.J.M.[.M.M.] c / c / h m 5.5.M.M.M.M.' M.m 5.c l 5.l M.[.M.M.M.M.M.h.U.h.",
"M.M.5.[.M.M.[.[.M.5.M.+./ +.h.5.] M.K.[.[.{.{.{.[.{.{.{.{.[.[.r.5.M.w.w.5.r.M.r.5.M.[.{.[.[.5./ l +.u.+./ 5.5.M.[.[.[.[.E.M.h.5.",
"* O $ $ + + $ * - * % O   X + @ $ $ O $ % $ * 1 1 - % % * = : ; - % * , ; $ $ $ @ = * ; ; = % % % # + + + X O & + O + $ % % % * ",
"h h z r w t r t t i i h t 0 t h h k h k h i i i h k d i i i a k m d d k h i i d h h h t a i i t t e 0 0 0 t t t i t i g i t i h ",
"[.[.[.[.{.M.M.M.M.M.U.U.U.5.M.U.E.[.M.5.].{.[.L.[.[.` m w.] M.J.[.M.[.[.E.E.[.[.[.[.{.[.{.M.M.K.r.5./ h h l d x 5.h.U.U.M.+.l M.",
"U.h.M.M.M.M.M.5.x +.h.h.M.U.U.M.M.M.M.5.E.E.M./ c / j m f f d m M.U.[.J.M.E.[.[.[.[.[.[.[.[.M.E.M.[.M.] ] / j 5./ +.5.5./ x k x ",
"5.u.h.h.M.M.M.M.M.M.M.E.[.M.L.[.M.M.[.E.M.M.M.5.l x m ] m c l 5.M.[.[.[.[.[.[.[.[.[.L.[.[.[.[.[.[.[.L.M.M.5.M.5.u.u.+.} +./ z +.",
"} +.u.M.M.M.M.M.M.M.h.5.h.M.h.u.M.M.h.M.M.E.U.E.5.5.[.[.M.h.M.M.[.[.[.[.[.[.[.[.[.[.[.[.M.+.M.M.E.M.5./ 5.5.5.h.+.} E E E / x E ",
"M.[.[.[.{.{.{.{.[.].].E.E.] 5.{.[.[.{.{.{.[.L.[.5.[.{.{.{.[.E.E.[.[.{.[.{.{.{. X{.{.{.{.].M.{.{.{.{.{.[.[.M.M.[.{.{.[.[.].M.M.M.",
"8 t i i i d i h h i i t w 7 8 t t r e w t w 0 8 0 w r w 6 6 6 r w w i i i i t t i t t w t i i t t w 0 0 t t t r t t r t i r w 0 ",
"6 4 4 6 8 6 2 , 1 , 2 4 4 6 6 1 2 2 , , , > 2 2 1 ; - - - ; * - ; 2 = > 2 4 4 , ; 1 1 > , 1 ; ; , - $ % ; , , 1 2 4 2 4 6 2 , , ",
"].m ] [.M.M.M.] c r.M.{.|.{.[.{.{.{.[.[.[.5.M.[.[.M.[.[.J.M.] E [.{.M.[.[.{.{.{.{.|.{.{.[.[.[.[.[.{.[.E.K.[.{.{.{.{.].].{.[.r.M.",
"/ h x } +.5.M.M.M.[.[.M.U.5.5.` / h.M.[.[.M.5.] M.M.M.M.5.M.h.M.E.M.5.5.u.M.5.M.M.M.M.E.M.5.M.M.M.5.5./ ] h.5.5.5.M.M.r.w.M.M.h.",
"5.h.A Z +.h.M.[.[.[.[.[.E.M.h./ / 5.M.U.M.M.[.[.[.[.M.M.J.[.[.[.[.E./ 5.5.5.h.5.5.5.] 5.] 5.5.M.5.5.] 5.w.M.M.r./ 5.5.5.M.U.M.h.",
"5.M.5.M.M.M.[.[.[.[.[.M.h.u.+.5.u.5.5.5.M.M.M.M.M.L.[.[.[.[.[.M.M.U./ M.M.r.M.5.5.] ] ] m c m / / 5.M.M.J.M.M.[.M.M.5.5.M.M.M.M.",
"5.x d 5.h.5.[.[.[.[.M.M.M.h.M.M.M.K.M.] / M.E.[.[.[.M.[.w.] [.M.5.x ] / ] M.M.M.5.w.5.M.M.r.w.M.M.M.5.] r.M.[.U.h.h.h.h.M.M.u.5.",
"5.+./ 5.M.m ] M.M.M.[.h.M.M.L.J.J.r.M.u.+.5.5.5.m m c / j d 5.5.m c g h M.5.5.5.M.M.r.L.{.[.J.M.5.5.w.M.M.[.M.} +.#.h.U.U./ / 5.",
"* + + % , ; , 1 ; % - ; - % @ & ; = ; - ; & $ % = % $ O O + + & % $ $ ; 1 - % % > ; * % % % % % % % % & = - % * % * < < * + @ * ",
"d d f h j k x h e x x k j h h h k l k x / x z x E / k z h i h k x x i d x / l h h k l k i i i i h h g h h z x x h d k x h d k h ",
"[.M.M.M.r.M.M.m d 5.h.' / h.M.M.M.h.u.5.u.M.5.5.h.h.} A } u.+.M.M.M.[.[.M.M.[.[.E.[.M.M.E.M./ +.u.M.h.u.u.h.M.U.h.h.u.U.h.h.U.[.",
"} +.+.5.r.M.M.M.M.h.h.5.5.h.M.M.M.M.K.[.M.r.5.5.5.M.M.M.M.U.[.M.M.[.M.[.M.M.[.[.M.E.M.M.M.M.E.U.U.U.M.h.+.{ x x E } u.#.u.+.+.} ",
"+./ / 5./ 5.M.[.M.[.[.[.[.M.[.M.] M.[.[.M.M.M.r./ ` ] r.M.M.r.r.] ] w.r.[.M.M.U.E.E.M.M.L.M.M.M.M.[.M.E.5.x i g +.E +.u.E +.} { ",
"5.E 5.+.l m m m 5.m ` ] ] r.5.m M.w.5.] M.r.M.5.5.5.5.5.r.] ` 5.5.5.] ] h.M.U.h.5.M.M.M.M.h.M.[.J.M.M.J.5.] t t / 5.5.h./ 5.u.5.",
"M.M.5.5.M.M.M.L.[.M.M.M.M.M./ j M.{.[.` / L.{.[.M.5.` [.[.{.[.[.[.[.L.r.M.h.x x j M.{.{.{.{.{.[.{.[.[.[.r.[.[.r.L.[.[.[.M.[.[.5.",
"6 8 0 t t r t w 0 w t t t w q q q w t 0 9 d r r r 0 6 0 w 0 8 6 4 w w q 6 q 5 4 6 6 w w i h i i t t t t i i i r t i i i t r t 8 ",
"; ; = = ; 1 , - ; = % = ; < ; - ; , 1 1 1 - ; 2 4 1 2 4 4 1 6 6 4 1 1 4 2 3 2 2 4 1 ; 1 1 4 6 6 4 2 4 2 1 > 2 1 1 , 1 2 6 4 2 ; ",
"M.5./ / 5.E E z x D c ] 5.] E.L.M.[.[.{.{.[.{.{.{.[.M.[.l x [.E.[.[.M.+.} +.5.h.E.[.[.[.{.{.{.{.[.[.M.5.+.E 5.M.} z A E h A } +.",
"5.k m 5.5.5.5.5.5.M.M.M.M.M.M.M.M.M.M.M.M.[.M.M.M.5.E.m 5.5.u.M.h.u.h.5.E E } +.h.M.E.E.M.M.M.M.M.M.M.M.U.' / M.+.5.' 5.x / M.M.",
"5.M.r.5.M.M.M.M.M.r.[.L.M.M.U.M.M.M.M.M.M.M.M.M.r./ ] 5.u.5.h.M.h.h.M.E.h.+.U.E.M.M.M.M.K.M.M.[.[.[.[.M.5.d w 5.M.c d h M.M.M.h."
};
