/* XPM */
static char *so_backroom[] = {
/* columns rows colors chars-per-pixel */
"64 64 118 2 ",
"   c #493D1A",
".  c #5B4A1C",
"X  c #5C5127",
"o  c #665625",
"O  c #6F5C23",
"+  c #6A5B2A",
"@  c #725F27",
"#  c #746026",
"$  c #7B6A26",
"%  c #73602B",
"&  c #77682F",
"*  c #7E6C2C",
"=  c #766531",
"-  c #796931",
";  c #836D2F",
":  c #85722C",
">  c #8D7C2E",
",  c #836E30",
"<  c #857333",
"1  c #8B7634",
"2  c #8D7A35",
"3  c #897738",
"4  c #8F7C3A",
"5  c #917D35",
"6  c #927D3A",
"7  c #847841",
"8  c #948235",
"9  c #9B8736",
"0  c #9E8A35",
"q  c #95823A",
"w  c #99853C",
"e  c #9D8B3C",
"r  c #A28D36",
"t  c #A28E3A",
"y  c #A69136",
"u  c #AA9336",
"i  c #AF9837",
"p  c #A5923B",
"a  c #AA953B",
"s  c #AD993D",
"d  c #B19C3D",
"f  c #B6A13F",
"g  c #8B8044",
"h  c #958444",
"j  c #9A8642",
"k  c #9D8A44",
"l  c #938648",
"z  c #978A4A",
"x  c #9C8C48",
"c  c #A18D44",
"v  c #A28E49",
"b  c #A49243",
"n  c #A99742",
"m  c #AD9B42",
"M  c #A5934C",
"N  c #A9974C",
"B  c #AD9B4B",
"V  c #B19E42",
"C  c #B09E4A",
"Z  c #A79750",
"A  c #AA9651",
"S  c #AD9C53",
"D  c #AE9D58",
"F  c #B19F53",
"G  c #B19F59",
"H  c #B5A244",
"J  c #B9A645",
"K  c #BCA946",
"L  c #B5A34B",
"P  c #B9A64A",
"I  c #BCAA4B",
"U  c #AFA156",
"Y  c #B4A353",
"T  c #B8A753",
"R  c #B7A850",
"E  c #BCAB53",
"W  c #B4A35B",
"Q  c #B8A658",
"!  c #BCAC5C",
"~  c #BFB051",
"^  c #B5A660",
"/  c #B8A760",
"(  c #BFB065",
")  c #C0AB47",
"_  c #C1AE4C",
"`  c #C3B14E",
"'  c #C0AF53",
"]  c #C0AF5C",
"[  c #C4B353",
"{  c #C8B655",
"}  c #C7B856",
"|  c #CAB956",
" . c #C5B45A",
".. c #C8B759",
"X. c #C7B85A",
"o. c #CCBC5C",
"O. c #D0BF5C",
"+. c #C0AF61",
"@. c #C3B363",
"#. c #C7B860",
"$. c #CDBD62",
"%. c #C3B469",
"&. c #CCBD6D",
"*. c #D0BF62",
"=. c #CFC05E",
"-. c #D1C15E",
";. c #CFC063",
":. c #CEC06B",
">. c #D2C364",
",. c #D5C867",
"<. c #D4C56A",
"1. c #D6C86D",
"2. c #D8CA6E",
"3. c #D5C670",
"4. c #D6C972",
"5. c #D8CB72",
"6. c #D9CD7A",
"7. c #DBD082",
/* pixels */
"-.-.,.-.O.O.>.,.O.O.*.O.O.<.*.O.O.*.*.| | O.o.| <.o.| { | *.....o.| [ ..[ _ ` [ { ) ) ) ) J _ J J J J V i i n u u f i i u V V 6 ",
"o.-.,.-.*.*.O.,.O.O.*.O.O.*.O.O.*.*.<.O.| o.| | O.O.$.O...*.o..... .| | ` _ [ ` { _ ` _ ) ) ' J ) V d J i i i u i V i V m i f i ",
",.,.-.,.*.2.*.*.,.,.O.*.<.*.*.&.*.*.*.&.>.o.*.<.O.$.*.*.*.O.*.*.o.o.$.{  .[ | { { ..{ _ _ ' ) _ _ ) J f f i i V f V V V d V i d ",
"2.>.>.2.2.2.5.*.*.2.1.,.*.O.2.<.*.3.*.*.<.<.&.O.$.<.*.*.&.O.*.&.&.*.|  .| ......` { ....' ) ) [ ) ) ) V d m V f V V f V V V u u ",
"<.*.,.,.*.*.2.2.*.,.5.*.O.*.<.O.*.&.<.O.$.<.$.o.*.&.o.o.*.*.| *.&.o...o.o.' { o..._ { .._ ) _ _ V J ) J d V V m i f i i i m i 6 ",
">.2.2.>.*.*.*.2.2.*.,.*.&.,.*.*.*.<.<.*.*.*.*.<.<.>.o.O.*.*.*.o.O...*.*...{ ' { o...' _ ) _ ` ) J f J P V V i d f f i i u u d d ",
",.5.2.>.,.,.*.2.5.*.,.*.1.1.*.<.<.*.,.<.*.O.O.1.,.O.*.O.| *.&.O.o.o.&.*.......[ { o.` ` _ [ ) ) ) J V J ) H V d f d u 6 i i d d ",
">.2.2.-.,.*.*.2.5.*.&.*.*.<.*.1.4.*.*.&.*.*.*.<.<.O.*.*.o.*.<.*.*.*.*.*...| ..` ....[ ' _ ' ` ) _ ) J _ P V V d f i u i i 6 V d ",
"<.>.2.<.*.*.2.2.<.*.5.<.*.<.<.>.<.4.<.&.<.1.<.>.<.>.O.$.*.<.$.:.3.*.*.*.o...[ [ | [ { | ' ` ' _ ) P ) ) J P P f d d m u u m d i ",
"5.2.2.2.2.2.2.2.5.6.2.2.3.<.<.1.4.4.<.4.4.4.4.<.>.<.>.>.<.:.<.3.&.<.*.$.o.o.| o.` | o.} ..[ ' ` ) _ ! P ) E f f f f V d d f m d ",
"<.2.<.*.2.2.*.*.2.<.-.,.1.>.>.5.4.<.>.1.<.>.<.<.*.*.<.<.$.$.1.<.*.*.*.o.} o.o.[ ` | | [ [ [ ' ) ' ' ) J ) f d f f i d f V i m d ",
"-.>.2.2.*.2.2.2.,.*.-.-.>.1.<.<.<.<.1.,.>.*.o.>.<.*.*.*.$.>.>.*.$.o.o.*.| o.o...o.[  .[ ' ' ' ) E ) ) T ) f d d f L d d i m f m ",
"O.O.2.2.<.2.2.2.>.>.-.O.*.2.<.*.>.<.5.>.O.*.O.| <.<.o.o.>.<.o.O.o.o.{ >.*.....$.o._ ` [ _ ) [ ' J J ) _ f f f d d J f d m f C i ",
"-.-.2.2.>.,.2.2.>.-.<.O.O.2.<.-.>.<.5.*.O.*.O.O.<.*.o.O.>.1.o.O.*.o.| *.$.....o.o.` _ ` _ ) [ _ ) J ) _ J f f f d T L V d d f m ",
">.2.2.>.5.2.>.2.2.O.*.-.>.<.*.,.<.*.<.<.<.O.O.*.*.o.<.<.o.>.>.o.o.| *.*.| $.$.| | [ _ _ ) ` ) ) ) ) J ) P f f f f J d f V m f V ",
"5.2.>.5.5.5.5.,.2.,.>.<.<.>.1.2.2.1.>.<.<.<.<.<.*.>.>.<.<.o.<.;.O.*.*.| *.$.$.o. .[ [ [ [ ` ) ' ' ' _ ) ) ) P P P f J T f f d L ",
"2.,.>.5.2.2.5.2.-.,.2.1.-.<.2.<.*.2.<.O.>.<.<.O.-.,.| o.,.*.o.>.=.=.=.=.=.` ` =.} ` ` =.} ) K ` P _ ' _ J I I J f H J d d J V i ",
",.>.2.2.>.>.2.2.>.-.,.-.O.<.>.*.*.<.<.| O.<.*.*.,.-.| | o.<.$.o.=.=.~ =.=.=.` =.=.` ) ` ) K } ` ) P _ ' J J K H H J f d d H H s ",
",.2.2.,.-.>.-.>.,.>.-.-.2.1.O.O.O.O.>.<.*.>.O.,.-.-.o.o.O.>.>.o.=.=.=.=.=.f ` =.` =.) ) ` } } K ) ) ) _ I K J f J J f d d s d H ",
",.2.2.>.,.>.O.>.<.,.-.>.2.<.O.-.O.O.>.2.>.*.O.<.-.| O.o.| >.<.o.~ =.=.=.=.=.} ` ` ` ` ` ` } } K ' _ C ) E J H H I f i f f i s J ",
">.2.2.O.>.O.O.,.,.>.>.>.,.,.o.-.=.| <.,.>.>.O.>.>.| o.o.| ;.;.o.=.=.=.=.} } } ` =.` ` } ` ` } K ) ) J I I J P H J f s d i u f V ",
"2.>.2.2.>.>.,.>.>.<.4.<.-.>.,.-.;.<.<.;.,.1.1.*.<.;.o.o.=.;.;.;.=.=.~ =.=.} } } ` ) ` =.` K ` ~ ' ) _ _ P P I J f J f f d H V d ",
"2.2.>.2.>.,.-.O.,.<.>.,.<.O.-.,.,.,.;.,.3.$.<.<.;.>.;.=.=.o.>.;.} =.=.~ } } | } ` } } ` } } ` ` ' ' I J I I H J P f H H J J d J ",
"*.>.>.*.,.,.-.O.,.>.o.o.>.>.-.>.,.=.;.<.$.$.;.<.>.o.o.o.o.o.=.| } } } =.} =.| } } } ` ` ` ` K K _ ) J J I J V H J H f H L V V J ",
"O.-.2.-.*.>.>.,.-.O.O.O.-.,.o.=.=.;.,.;.o.o.o.o.>.;...[ o.=.=.| ` ` } =.[ ` ` } } } ~ ~ ` ` ~ K I f K I J J H H H P H f V H L f ",
"O.O.,.,.*.O.>.2.-.O.O.O.o.<.-.-.=.;.1.;.| o.o.o.<.<.o.| =.;.} } } ` ` =.} ~ [ } } ` ~ ` K K ~ I K K K I f H H H d R L V V H L f ",
"O.O.>.-.O.*.O.,.*.O.>.O.o.,.O.o.=.o.<.o.o.o.} o.>.o...| } ;.o.X.} ~ ` } [ ` [ } } ` ~ ~ K K ` K I K I I J f f f f L f V V m H f ",
"-.,.O.O.,.,.O.O.,.*.O.O.>.>.o.<.<.o.o.;.$.o.o.=.o.o.$.o.X.;.;.$.=.[ } } ~ } X.` ` } ~ ` ` ` K K ~ I f I I R H f J f s H L f f L ",
",.-.-.,.,.,.*.O.*.<.>.>.O.| >.<.<.>.o.o.=.=.;.=.o.o.$.o.;.X.o.;.;.=.} ` } X.} } ` ` ` ` ~ ~ I ~ ~ ~ ~ K I R I R H d f f H H s f ",
"-.O.-.,.-.-.,.*.O.-.,.>.o.O.>.o.o.>.=.o.o.;.=.} o.o.X.} ;.$.X.X.o.} [ } } ` ` ` ~ K ` } K f I ~ K K ~ I J I I f d H f p p d n s ",
"O.-.,.-.O.*.*.,.O.O.O.| o.*.| | o.=.;.=.} o.o.o.o.o.} } X.;.X. . .[ ` } ` _ ` _ } K K ~ K K I f f I I ~ J H f m m H i y p a s s ",
"O.,.-.-.O.O.O.*.>.| { | >.O.| | o.| =.;.} o.o.;.$.| } [ [ } $. .~ } =.} ` ` ` K ~ ~ K K K ~ ~ f H I f f R H H m L H u y a p s s ",
"=.-.-.o.o.$.| o.;.| { } =.=.[ | o.} o.:.X.X.$.;.o.}  .[ I [ $. .E ~ o.} I ` ~ K I ~ I I I ~ J f f J f L R H H m L m y a s a a s ",
"=.=.-.o.o.| | *.;.o.o.o.| ;.| o.o.X.=.X.$.$.$.o.X.E I I I  .X.X.U I [  .~ I I K ~ I I ~ I f J f f f f J J H J H H d a a a y s s ",
",.=.>.>.O.o.*.>.;.;.;.$.o.;.;.o.;.;.o.o.$.:.:.$...~ Q ~  . .$.;.B R ~ ~ [ ~ ~ ~ ~ P ~ ~ ~ J I I H V I I L R R L L m f m a m s a ",
">.=.o.O.o.O.o.o.;.;...X.=.o.o.$.;.o.X.$.#...$.#. . .~  .~  .;.:.L n R L ~ ~ [ ~ P ~ ~ I J I J J J I J f J L d H V m m f H H s a ",
"| -.=.| o.....o.;.o. .[ $.$...} o.X.$.:... . ... .[ [ Q E $.:.:.Y c L L I I ~ P L I R L H H I P I H H J J V s s m m s m H m s m ",
"| | >.o.|  .$.*.| ..| [  .$...[ ~ X.:.#. . . .| $. .I I X.:.:.,.U c U R R P J P ~ H J H f f I R L H I I H V m s m H s n n s m a ",
"{ { o.o. .| o.*.[  . .[ [ $. . .[ ..;. . . . .[ #. .I ' $.1.:.,.M e N L P L C L ~ J H L H H I I I L I I H d m p a H m p a a s p ",
"{ | o.[ ..$...o...[  . ..... ... .[ X.X. . . .&.$.E  ...=.;.1.,.x b Y L L L P m R R ~ ~ I ~ I J H J H I J d s a a m s a a r p p ",
"| o.}  .o.#.X. .o... . .$. . ...#.~ [ X.#.@.$.&.#.$.(  .;.:.4.6.U w C R R R R L J I ~ R ~ R f H K R H H I H H s H s s V s a p a ",
"=.| } o.X.$.#... ... .#. .'  ...$.@.E [ X.#.$.X.$.:.E &.4.4.4.6.l 8 b U ~ R R R L L ~ ~ I H V I H J K H H R H H s a m s s s a y ",
"| } X.} ~  .#.X.'  . . .T  .[ ]  .@.@.! E  . . .&.Q  .&.4.6.4.4.l & b B R m m H C H L ~ P f H P s H H R H H J m s m s y y a a p ",
"[ o.X.E ! ~  . . .T I _ E ' T E !  .@. .T E E #.! B $.3.1.6.6.6.Z @ w n m p r r C R H L P I I H V V s H H H H s m H s s a y a a ",
"' |  .' ! E E [ ] T P T  .' T ! ! ! ! @.Y L T $.N C <.<.<.4.7.6.z O 8 k p b 8 8 n R C H L ~ L d H V s H R H s s H f s a a y y m ",
"_ [ ' T E E T T E P ! T ' ] L Y Q Q ! %.Y Y Q  .c ] <.<.<.4.6.%.o # * e p n 8 $ 9 m s C P L H s s m s s J m m s m s a a a y a s ",
"_ I ' I T T E E Y ] #.] T ' T L L Q ! ! W Y T Q Q $.*.&.<.4.4.7 . * < e b B 8 $ 8 t n L f s H m m m s H s s H m a s s a p p s a ",
"..' _ T T E E P Y #.%.#. .E ' E Q Y C Q %.F L ! @.&.&.3.&.*.7   @ 8 q 8 p m 9 * 8 9 C H L L H H H H H H m H H H m s m m s s s s ",
" . .P P T E I L !  .] ]  .E T  .] C B ! ! F B T ! @.&.:.#.! X % g 8 7 > 8 s p > > b L m H R H H H H H m m H a s H a y p m a p s ",
"_  .' P I T P T !  .%.] ] ] ' T Y B F F P T B k Q %.@.@.#.Z + x e g : > e n 9 $ g m R m m R m m V V m H H s a p a s p p a p a s ",
"' ) ' T I L T ~ P ' %.+.! +.! T B B T B L T B q Y @.! T  .G h N e 8 : 7 g 9 g : p H H m H m H H m m m H m s s p y m a p p p a p ",
") ) ' I P L I E P ! %.%.+.! Y T Y Y ! Y C P p 5 T ! W Y ! x x F U q & > > e 8 g b L H R H H R H V m s H m p s p y m a r r p p r ",
"I _ I H P R P P T E %.%.%.G N Y U W W c e C B k T Y Y L Y Y D W U x 8 & l m m n m L R m m R R m V m s m m a a a a s p p p 9 0 p ",
"_ [ P P I E R L T ] %.%.%.W F S Z U ^ M e B L b N Y C L L b M / U Z j * b R R R m R R H H R m m H m m m V m a a m p p n n p r p ",
"` K J I R R E I T ] %.%./ S Y B B U W N b C Y b b L C B Y k 4 W W G M 3 n R R R b m H R H n n H m m H m a m V m p p m s p s p 0 ",
"K K E I J L P T T T ] ( Y B B M Z U W Z x B L B k N U B B n q G W D M 2 b U R L b m m m m n m m a n a m p p s a p s p 0 p p p 0 ",
"I ' ' ) L V V T T Y Q Q N F n M S S W Z M Z Y N 6 b F C m m c F G A c 1 t C C C 9 H n m n L m p p p p a m n p p m s r r p r y p ",
"P ' _ P P L C V T Y Q G M S N B W S Z ^ D M M B N 6 m C c n v F D Z c 6 5 n C n g C n n n n p r p r p p m p p p m a 0 r p 0 0 a ",
"J _ I V P L V B L L Q F b N B S D M l l h x N M N 5 6 C V m v v Z v 6 6 > e C t 8 H m m p p p r p p r a a p p p p p r p r 0 0 p ",
") P ) P J C L L Y Y T Y M k N F Z M h = - h B B B c 6 m F m 6 6 v v 5 5 1 w n k z C m H n p p p p 0 p a r p n p r a p r r p r r ",
"' I P P P V L L T T Y T F x x N x M x 8 < 3 M F N c q C C t 1 c v v 6 1 1 q m t e m R m m m p p y p p p n n p n p r p p p p e p ",
"J P J H P H L V R L L Y Y N x j x v q k h 3 j N c 1 t C c t 6 c v v k 6 5 q t w z n n s m m p 0 p p 0 8 p p r p p e e p p p e p ",
"V V V V V V L J J B C L B M 6 j Z Z v q q 4 3 q 3 * 5 c t 6 6 6 j v c 6 w w q 5 p p p r p s a p p 9 > > p p e r p p e e z p p n ",
"d d P L V s m J V s m m m x 3 j M b N w q k 8 e 4 & 2 q c t 6 6 6 j w 5 q q q 3 b p r y p y n p r r 9 > > r r e 9 b p 9 9 p p p "
};
