/* XPM */
static const char *we[] = {
/* columns rows colors chars-per-pixel */
"64 64 177 2 ",
"   c #1C3D79",
".  c #1E407B",
"X  c #23437D",
"o  c #2A467C",
"O  c #2D497E",
"+  c #314C7F",
"@  c #264680",
"#  c #284780",
"$  c #274881",
"%  c #2C4B83",
"&  c #2F4F88",
"*  c #314E84",
"=  c #304F88",
"-  c #345186",
";  c #3A5586",
":  c #345289",
">  c #3B5689",
",  c #3D598C",
"<  c #435D8D",
"1  c #435E90",
"2  c #47608E",
"3  c #49618E",
"4  c #466192",
"5  c #4B6593",
"6  c #4E6896",
"7  c #4D6999",
"8  c #506791",
"9  c #536B96",
"0  c #586F97",
"q  c #536D9A",
"w  c #586F99",
"e  c #5A7097",
"r  c #55709D",
"t  c #5B729B",
"y  c #60769F",
"u  c #5773A0",
"i  c #5B75A1",
"p  c #5F78A5",
"a  c #6077A1",
"s  c #637AA4",
"d  c #697EA5",
"f  c #647DA8",
"g  c #778091",
"h  c #70809D",
"j  c #6D81A6",
"k  c #6E83A9",
"l  c #7184A7",
"z  c #7186AA",
"x  c #7589AD",
"c  c #7B8DAD",
"v  c #798BA7",
"b  c #7F90AF",
"n  c #768CB0",
"m  c #7A8EB1",
"M  c #7D90B1",
"N  c #8D95A2",
"B  c #8F98A5",
"V  c #8192AF",
"C  c #8895AD",
"Z  c #9299A6",
"A  c #969DAA",
"S  c #8494B1",
"D  c #8897B3",
"F  c #8799B5",
"G  c #8C9AB4",
"H  c #879AB9",
"J  c #8B9DBA",
"K  c #919EB5",
"L  c #919FB8",
"P  c #9AA1AB",
"I  c #8EA1BE",
"U  c #94A1B6",
"Y  c #99A4B7",
"T  c #94A3BC",
"R  c #9AA6BC",
"E  c #9DA9BD",
"W  c #A1A6AD",
"Q  c #A7A9AD",
"!  c #ADADAD",
"~  c #B0AFAF",
"^  c #B1B0AF",
"/  c #A1A7B1",
"(  c #A4AAB2",
")  c #AAAEB3",
"_  c #A2ACBD",
"`  c #AFB1B4",
"'  c #ABB3BF",
"]  c #B3B3B3",
"[  c #B4B6B8",
"{  c #B5B9BF",
"}  c #BABCBD",
"|  c #C0BDB8",
" . c #C6C3BD",
".. c #C9C5BE",
"X. c #8EA4C3",
"o. c #93A6C2",
"O. c #98A7C0",
"+. c #96A9C4",
"@. c #9BAAC2",
"#. c #A2AEC2",
"$. c #A6B1C4",
"%. c #ABB5C5",
"&. c #AEB8C7",
"*. c #A7B4C8",
"=. c #AAB6C9",
"-. c #AEB9CA",
";. c #B0B7C1",
":. c #B2B9C5",
">. c #BBBEC2",
",. c #B3BCCB",
"<. c #B8BFCA",
"1. c #B3BFD0",
"2. c #BFC0C2",
"3. c #B7C0CE",
"4. c #BAC2CD",
"5. c #B6C1D0",
"6. c #BCC4D1",
"7. c #C3C4C3",
"8. c #CAC7C1",
"9. c #CCC9C4",
"0. c #C2C6CD",
"q. c #C6C9CD",
"w. c #CBCCCC",
"e. c #D0CDC6",
"r. c #D1CFCA",
"t. c #CFD0CE",
"y. c #D7D1C5",
"u. c #D8D3C7",
"i. c #D4D2CD",
"p. c #DAD6CC",
"a. c #DED8CC",
"s. c #C1C7D1",
"d. c #C5CBD4",
"f. c #C9CED5",
"g. c #C7CED8",
"h. c #C8CFD8",
"j. c #CDD1D6",
"k. c #CCD2D9",
"l. c #D3D4D4",
"z. c #D9D7D1",
"x. c #DBDAD4",
"c. c #D3D6DA",
"v. c #D6D8DB",
"b. c #DBDCDD",
"n. c #E1DBCE",
"m. c #E3DED3",
"M. c #E0DFDA",
"N. c #DFE0DF",
"B. c #E7E1D4",
"V. c #E8E2D6",
"C. c #E4E1DC",
"Z. c #EAE6DB",
"A. c #EDE8DF",
"S. c #DDDFE1",
"D. c #DFE0E1",
"F. c #E4E4E2",
"G. c #E8E7E2",
"H. c #EEEAE1",
"J. c #E9E9E5",
"K. c #ECEAE4",
"L. c #EDEDEA",
"P. c #EEEDE9",
"I. c #F0EBE1",
"U. c #F1EDE4",
"Y. c #F1EFE9",
"T. c #F5F0E6",
"R. c #F5F3EC",
"E. c #F7F4EC",
"W. c #F5F2EB",
"Q. c #F9F5ED",
"!. c #F9F6ED",
"~. c #FCF8EE",
"^. c #FAF7F0",
"/. c #FFFEF3",
"(. c #FFFFF5",
"). c #FFFDF3",
"_. c #FFFFF8",
/* pixels */
"W W g | 9...9.N N 8.e.a.n. .` ! Q P ) u.......N N ..r.m.n.7.} ] ] P [ n.y.....Z N 9.p.m.m.8.} ^ Q Z ] n.u.....N N 9.i.n.n.9.} ! ",
"%.G 9 <._ J.(.$.@.(.L.$.<.c J w.q.D l 3._ J.).#.@.(.L.$.3.x J f.c.S l 3.E J.).#.@.).L.#.,.x J q.v.V l ,.R J.(.@.@.(.L.#.<.z T j.",
"h o > X > E.3.j k -.!.<   6 < %.Y ; 8 X < !.,.k z -.!.4 . 9 4 ;.;., 9   < !.,.k z -.!.<   8 4 %.>.; < X < E.,.k z ,.!.< X ; < ;.",
"Z.G 5 d.c.$.s N.F.d @.c.d.6 V K.U.D 2 q.c.@.a N.F.d @.c.d.6 S A.Y.V 3 d.k.@.s F.J.d @.c.d.6 S K.K.V 5 0.c.@.s F.F.j @.c.d.5 H K.",
"C.v % k.z R J.R.R.J.#.z h.- s I.Z.d O j.k R J.R.R.P.#.x k.- d K.K.d % k.z R J.R.R.J.#.z d.* d K.Z.d O f.k R J.E.R.P.#.n k.- k T.",
"w.d.f.J %.f.P.k.d.T.d.,.J k.s.V.z.4.f.J %.d.P.k.d.L.f.,.J l.s.C.x.4.d.J %.f.P.k.d.T.f.,.J j.s.V.x.4.d.J %.d.P.k.h.L.f.%.J l.s.Z.",
"} (.3.s ~.G + J X.> c ).k ,._.x.i.~.,.d !.G O H I > V ).j -.(.M.z.~.,.d ~.D * J o., V ^.k 1.(.x.i.~.<.s ^.D * J o.> S ^.j ,.(.C.",
"{ d.s v.!.b.4 6 q , v.^.b.d 6.w.7.3.s c.~.b.< 6 q < v.!.b.d 5.i.w.4.s v.!.b.< 6 q < v.^.b.d 6.i.w.3.s v.~.b.< 7 r 1 b.^.b.d 5.z.",
"v f %._.v.T o.r q o.+.c.(.<.p K D i %.(.c.o.X.r 9 o.+.c._.<.p K T s ,.(.c.T o.q q o.+.c.(.,.i K T i :.(.c.T X.q q +.+.c.(.,.p D ",
">.d.a c.!.D.4 7 r < b.^.b.s 6.w.r.d.a c.~.F.4 q r < b.^.b.s 6.i.b.s.a c.~.F.6 q u 4 D.^.b.a 6.w.z.s.a c.~.F.4 q r 1 b.^.b.a 3.i.",
"2._.3.d !.G > I o.< c ~.j ,.(.z.C.(.3.d !.G > T o.< c ^.j ,._.x.Z.(.3.d !.G , I o.< V ^.j ,.(.z.Z.(.3.d !.G > I o.< S ^.j ,.(.z.",
"w.6.3.T #.j.P.j.d.Y.j.%.H 4.<.M.G.4.4.I $.d.P.k.d.Y.j.%.J s.3.V.G.3.4.T %.j.Y.k.f.Y.j.%.H 0.<.M.K.4.4.T $.j.Y.k.f.Y.l.%.J 0.<.V.",
"l.S % f.x T C.T.Y.F.E x d.: z A.T.m * f.x T C.T.Y.C.E x d.: z K.T.c * j.x R F.W.W.F.@.x d.: z A.W.c * f.x Y F.T.T.F.@.n f.- l U.",
">.c 9 _ ,.@.a c.b.s T ,.E t z z.M.z t E %.R a v.b.s T ,._ t z b.M.j t _ ,.@.s b.b.s T ,.E t z z.C.x t E :.R s b.b.a T ,._ t z b.",
"C 6 q - < K.,.k j #.K.5 % q 6 _ ' 6 q - < G.%.k z %.Y.6 % q 6 _ :.5 t - 1 G.,.z k %.P.4 % q 5 _ %.6 t - < G.%.k k %.P.6 & q q _ ",
">.E R b.q.x.Z.Y K V.z.>.l.G U } 2.E E v.0.z.Z.Y U Z.z.>.l.G K >.q.T #.b.0.z.Z.U U V.z.>.l.G K } 0.E E b.0.x.Z.U U Z.z.>.l.G T >.",
"[ A  .m.a... .Z Z  .9.m.Z.p.2.! ] W 9.n.a... .Z Z  .9.n.V.i.2.] [ / 8.n.a.8. .A Z  .9.V.Z.z.7.! [ ( 8.m.n.8...Z Z ..9.V.V.i.>.! ",
"S.j d ,.K C.!.@.T !.F.T %.z G q.b.x j &.T F.!.@.O.~.J.E -.z G f.v.v j -.T J.^.@.T ~.F.R %.x J q.c.v j -.T F.^.@.T ~.J.R -.z J q.",
",.< w X 5 W.-.j z #.W.6 X 9 6 ;.4.< 9 @ 5 W.-.k z *.W.9 @ 9 6 ;.<.3 t @ 5 !.-.j z *.W.6 @ 9 6 %.<.< 9 @ 5 W.-.z z %.W.6 @ 9 t ' ",
"^.V 2 f.c.@.s F.G.j T k.f.6 S Z.Y.D 5 d.c.@.d F.F.j o.c.f.6 V A.T.S 6 j.c.@.d F.J.k T c.f.6 S Z.I.V 6 f.c.o.d J.J.j O.c.f.6 H A.",
"W.d - f.k #.P.W.Y.K.%.k d., d Z.Z.j > k.k _ P.R.T.L.$.x d., j I.I.d > k.k #.L.R.T.L.$.k d.; j A.A.j > k.k #.L.R.W.K.%.z d., z I.",
"C.0.j.H %.d.F.f.s.J.d.,.H l.f.M.z.0.l.J %.d.F.f.d.J.d.,.H c.f.V.z.0.c.H :.d.J.k.d.P.d.,.H c.f.M.p.0.l.J :.d.J.h.d.J.d.,.J v.f.Z.",
"M.!.-.d ^.G O J X.; V ).z =.(.x.i.!.-.d ^.G O H X.: D ).z -.(.x.i.~.-.j ^.G O J X.> S ).z -.(.x.i.~.-.j ^.G O J X.- D ).z -.(.V.",
"c.,.s b.!.v.1 6 r 4 v.!.F.k 5.w.w.3.j b.!.v.1 6 q 4 v.!.F.k 5.l.w.3.j b.^.b.4 6 r 4 v.!.F.k 5.w.w.3.d b.!.b.4 6 q 4 b.^.F.j 5.c.",
"#.i ,.(.v.o.X.r q X.+.c.(.3.p K E s &._.c.o.X.q q X.+.c._.3.p U R s ,._.v.+.o.q q o.+.c.(.3.s G E s :._.c.o.X.q q X.o.v._.,.s G ",
"J.s.a c.^.D.< q u , b.^.c.a s.i.b.f.a j.^.F.1 q u < b.^.v.s s.l.b.d.s c.^.F.< q i 1 S.).c.s s.i.b.d.a l.^.F.4 q q , b.^.c.p s.z.",
"L.).3.d !.G < T o.3 v !.j <._.z.G._.6.s !.G < o.+.3 c !.j <.(.x.G._.3.d !.G < o.o.3 c !.j 3._.z.G._.6.d !.G < o.+.3 b !.d <.(.x.",
"E.,.3.I _ c.Y.k.k.W.l.%.J 4.,.V.K.3.3.T #.l.W.k.j.W.l.%.J s.,.V.K.,.4.T _ c.W.k.f.W.l.%.J 4.<.C.K.3.3.T $.c.R.k.k.W.c.$.J 4.,.V.",
"(.c % j.x T b.W.T.C.R n f.- l A.!.M % k.x T F.W.W.C.T n k.- z K.!.c * k.n T F.R.W.F.R n f.- l A.W.c % k.x T F.E.E.F.R m k.* z U.",
"J.l t _ ,.$.a c.b.a E ,.E t j z.C.z t E ,.#.s c.b.a @.3.E t z z.C.k t _ ,.#.a v.b.s E ,.E t l z.C.z t E ,.#.s b.b.a @.,.E t z x.",
"<.5 q - 1 G.,.z k %.P.6 - q 6 _ %.6 w : 1 K.<.k k %.K.6 - q 6 _ :.4 q - 4 G.,.z k &.P.6 & 9 6 _ %.6 t : 1 K.<.k z %.K.6 - q q ' ",
"b._ E b.0.z.V.U K V.z.>.l.G U } 7._ E v.q.b.Z.U U V.z.>.l.U T 2.l.E R v.0.z.Z.Y U V.z.>.l.G T } q.E R b.0.z.Z.U U Z.z.>.j.G Y 7.",
"} / 7.m.a.8. .Z N  .9.m.V.i.7.^ ] (  .m.a.8. .Z Z  .9.m.B.i.2.] } (  .n.p.8. .A N  .9.n.V.i.7.] [ ) 8.m.a.8.8.Z B  .9.m.V.i.2.! ",
"S.c a =.K J.).@.T ).L.T $.k G q.v.m d %.K J.^.@.@.(.L.T =.z G q.c.b y -.T J.).@.o.(.L.@.&.z G q.c.c d %.T J.).@.@.(.L.R =.k J q.",
"3.3 t X 6 !.-.z z *.!.9 X 9 6 %.<.< 0 % 6 !.=.j z *.!.9 @ q 6 ' <.5 q @ 9 !.=.z z *.!.9 @ w 6 %.4.4 9 @ 9 !.=.k z =.!.6 @ t q ' ",
"^.D 2 c.c.o.d F.J.j o.c.j.5 D A.Y.D 5 j.c.T d F.J.z o.c.c.6 D K.U.S 5 c.c.T d J.J.k o.v.j.5 G Z.Y.D 5 j.c.T d F.J.z o.c.c.6 G K.",
"W.j ; f.k #.L.W.T.Y.%.z d., j A.K.j ; f.k #.L.T.T.Y.%.z d.> d K.A.j > h.k #.Y.W.T.Y.%.z d.; j Z.K.l > f.k $.L.T.T.Y.%.n g., l Y.",
"C.q.c.H :.q.F.h.s.J.s.,.H b.k.C.z.q.l.H :.d.F.g.d.J.d.,.H v.f.V.x.d.c.H ,.d.F.f.s.J.s.<.H v.k.C.x.d.c.H :.d.F.d.d.J.d.,.J v.f.Z.",
"x.!.*.j ^.G o J X.- S ).z =.(.x.i.~.%.d ^.K o H I - D ).z %.(.x.z.~.=.j ^.K O H I - D ).z =._.M.i.~.=.j ^.G o J X.- D ).z =.(.M.",
"l.,.d b.!.b.5 6 r 4 c.!.F.k <.w.q.<.d b.!.v.5 6 q 5 v.!.F.k <.w.w.3.j b.!.v.6 6 q 6 v.!.F.j 5.w.w.<.d b.!.v.5 6 q 5 v.!.F.k <.l.",
"#.s -._.v.o.o.q q o.+.c._.,.p U R s ,.(.v.o.o.r 9 o.+.c.(.3.s U E s ,._.v.o.o.r q o.+.v._.,.p K R s ,.(.v.o.o.r q o.+.v.(.,.s G ",
"J.f.a j.^.F.1 q u , S.^.c.i d.i.z.k.s k.^.F.1 r i , b.^.c.s s.i.b.k.a j.^.F.1 r i , b.).c.i d.r.z.k.i c.^.F.1 r i , b.).c.s s.i.",
"T.(.6.s E.D < o.+.5 v !.j 5._.z.F.(.s.s E.D < o.+.6 c !.d 3.(.x.Z.(.s.d !.G < o.+.6 c !.j 3._.z.Z._.6.s !.D < o.+.3 c !.j 5.(.z.",
"!.,.,.T #.v.W.k.j.E.c.$.J 3.,.C.K.<.,.T #.c.W.k.j.!.c.$.J 3.,.V.K.,.<.o.#.v.E.k.j.E.c.*.J 4.,.M.K.3.<.T #.c.E.k.j.!.c.*.I 4.,.V.",
"(.v % k.m L b.W.W.b.T m k.- z A.W.M * j.m T b.W.W.b.T n k.: x K.W.c % k.M T b.E.W.C.T m j.- l A.W.c * k.m T b.W.W.N.T m k.- z I.",
"J.l t R ,.*.a c.b.i @.,.Y t l z.C.j t Y ,.#.a c.b.a @.<.R t j z.b.j t E ,.*.s c.b.a @.,.R t z z.M.j t Y ,.#.s c.b.a @.,.R t x z.",
"<.6 t : 1 K.3.z j %.Y.6 - 9 q _ %.6 r > 4 G.,.k k -.K.6 - r 9 _ :.6 t : 4 K.3.z k -.Y.5 - q q _ :.q t : 1 K.,.k k ,.K.6 : w r _ ",
"v.E #.b.q.z.Z.U U V.z.>.l.G U >.q.E _ b.q.z.Z.U U V.i.>.l.K K >.q.Y #.b.q.z.Z.Y U V.z.2.l.G U } q.R E b.q.z.V.U U V.i.>.c.U T 2.",
">.P 7.m.a.8...A Z ..9.V.Z.z.7.] } ( 8.m.n.9.8.A A 8.e.V.Z.z.2.~ } ( 9.B.a.8. .A Z ..e.V.Z.z.7.~ } ) 9.m.a.8.8.A A 8.e.V.Z.z.7.] ",
"S.j d &.G F.^.@.T ~.J.T *.k H w.v.z d %.K F.).@.@.^.J.T -.x H w.b.z d =.K F.^.@.T ^.J.T *.z H w.c.c k %.L F.~.@.+.).J.T =.k J w.",
",.< t % 9 W.=.z x #.W.9 @ 9 6 :.4.< 9 % 6 W.=.z x *.E.q % t 9 ;.<.< w % 9 !.=.z x *.E.6 @ t 6 ;.>.4 t % 9 !.*.z z *.!.q % 0 t %.",
"^.D 2 j.c.o.d F.J.z T c.j.6 D A.Y.D 5 j.c.T j J.J.k T k.j.6 S A.T.V 5 c.c.o.d F.J.z o.k.j.6 S A.Y.S 5 c.c.T k J.J.k o.c.k.6 G A.",
"T.j ; d.k $.Y.W.T.T.%.k d., j A.K.l > h.k $.Y.W.T.Y.%.z s.< j K.K.j > d.k $.Y.W.T.T.,.k d., j A.Z.j , h.k $.Y.T.T.Y.%.x d.< z I.",
"x.d.c.H ,.0.F.k.s.J.s.3.H c.k.C.x.d.c.H ,.d.F.h.d.J.s.,.H b.k.V.x.d.v.H ,.d.F.k.d.J.s.<.H v.k.C.x.d.l.H ,.0.F.d.d.J.s.,.J b.k.C.",
"z.!.*.d ^.G o H X.- D ).z *.(.x.p.~.=.j ^.L o H X.* D ).z =.(.x.i.!.%.k ).K O J I : D (.z =.(.x.z.~.%.k ).G o H I * G ).z =.).M.",
"l.,.s b.E.v.5 6 q 5 v.E.F.z 1.w.w.<.j b.E.b.6 6 q 6 b.!.F.k ,.l.w.<.j b.E.v.6 6 r 7 v.E.F.k 5.w.w.<.j b.E.v.4 6 q 6 v.!.F.j 5.l.",
"@.s %.(.c.o.o.r q X.+.c.(.,.s K E s -.(.v.+.o.q q X.+.v.(.,.s U E s &.(.v.o.X.r q X.+.c.(.,.s K E p %._.c.o.X.q q X.o.v._.,.s G ",
"J.f.a j.^.D.< q u , b.).c.a d.i.b.k.a j.).F.< q u , b.).c.i d.i.b.f.i j.^.F.1 r i , S.).c.s d.i.b.k.a j.^.F., q u , b.).c.i d.l.",
"Y.(.6.d E.G 3 o.+.6 c !.j 6._.z.F.(.s.s !.D < o.+.6 c !.j 3.(.z.F._.6.d !.G 3 o.+.6 c !.k 6._.z.G._.s.s !.D 3 o.+.6 b !.d 6.(.z.",
"!.:.,.T _ v.W.c.k.!.c.$.I <.-.C.P.,.,.T _ c.E.c.k.!.c.$.J 4.&.M.P.,.<.T #.c.E.c.k.!.v.*.J <.,.C.K.,.,.T #.c.!.k.k.!.v.*.J 3.-.V.",
").c % k.m T b.!.E.F.T m j.- z A.W.b % j.x T b.E.W.F.T m k.- z A.W.c * j.m T b.!.!.F.T m j.- z A.W.M * k.c T C.E.E.b.T M k.% z I.",
"J.z y E ,.*.a c.b.s @.,.R t x x.C.z t Y ,.#.a c.b.a @.,.E t j z.C.k t E ,.*.a v.b.s #.,.R t z z.C.k t Y ,.*.a b.b.a #.,.Y t z z.",
",.5 q : 4 Z.,.k k &.G.5 * 9 9 _ %.6 t > 4 G.,.k z %.K.5 * q 5 _ :.5 q : 4 G.,.k k :.K.6 * 9 6 _ %.6 t : 4 G.,.k k &.G.5 - q 9 _ ",
"J.*.T b.q.b.I._ R I.M.q.b.T *.w.c.=.@.C.f.b.I.E R I.M.q.b.R *.w.b.=.@.S.d.M.I._ E I.M.q.b.R %.w.z.=.@.b.d.C.T.@.R I.b.q.b.R %.w."
};
