/* XPM */
static char *we_backroom[] = {
/* columns rows colors chars-per-pixel */
"64 64 123 2 ",
"   c #0A0602",
".  c #0E0903",
"X  c #130C05",
"o  c #180F06",
"O  c #161006",
"+  c #1B1106",
"@  c #16130A",
"#  c #1B140A",
"$  c #1D1A0E",
"%  c #1D1710",
"&  c #1E1B10",
"*  c #221307",
"=  c #261907",
"-  c #22160A",
";  c #29170A",
":  c #241A0C",
">  c #2B1C0D",
",  c #301F0E",
"<  c #241E11",
"1  c #291F11",
"2  c #27220F",
"3  c #2C210C",
"4  c #33230C",
"5  c #36290B",
"6  c #3F310F",
"7  c #262214",
"8  c #2A2313",
"9  c #2C2817",
"0  c #272418",
"q  c #2E2A19",
"w  c #342412",
"e  c #392713",
"r  c #322917",
"t  c #3C2B13",
"y  c #322B1A",
"u  c #3F2F18",
"i  c #3E3014",
"p  c #34301E",
"a  c #3D321D",
"s  c #3B3421",
"d  c #3F3825",
"f  c #41330E",
"g  c #453315",
"h  c #473811",
"j  c #4C3C13",
"k  c #44341C",
"l  c #45381C",
"z  c #4C3D1C",
"x  c #443B24",
"c  c #4D3D22",
"v  c #524215",
"b  c #544519",
"n  c #584719",
"m  c #5C4C1C",
"M  c #5E501F",
"N  c #604E1A",
"B  c #64531D",
"V  c #69561E",
"C  c #67581F",
"Z  c #6C5A1F",
"A  c #705E1F",
"S  c #72611F",
"D  c #4E4025",
"F  c #47412B",
"G  c #48422B",
"H  c #574B20",
"J  c #5F4F20",
"K  c #5E5021",
"L  c #614F20",
"P  c #645421",
"I  c #695721",
"U  c #675821",
"Y  c #6D5C21",
"T  c #6C5E2D",
"R  c #715F22",
"E  c #6F612E",
"W  c #746323",
"Q  c #796624",
"!  c #7C6A26",
"~  c #73632D",
"^  c #79642A",
"/  c #7E6C28",
"(  c #736431",
")  c #786731",
"_  c #7B6A32",
"`  c #7F7139",
"'  c #816E27",
"]  c #816E29",
"[  c #837027",
"{  c #85722A",
"}  c #89762B",
"|  c #8D7A2D",
" . c #927D2D",
".. c #857333",
"X. c #8D7B30",
"o. c #837239",
"O. c #917E31",
"+. c #95812E",
"@. c #9A842F",
"#. c #958232",
"$. c #9A8631",
"%. c #9E8934",
"&. c #9E8B38",
"*. c #A18B2E",
"=. c #A28D34",
"-. c #A28F39",
";. c #A59135",
":. c #AA9436",
">. c #AE9937",
",. c #A59139",
"<. c #AA963A",
"1. c #AE993B",
"2. c #B29D3C",
"3. c #B5A13E",
"4. c #A89542",
"5. c #AE9B41",
"6. c #B19E42",
"7. c #B6A242",
"8. c #B9A544",
"9. c #BBA846",
"0. c #B6A448",
"q. c #B9A74A",
"w. c #BBAA4B",
/* pixels */
"9.w.8.8.9.9.8.8.8.2.9.9.9.9.w.w.6.0.6.6.w.q.0.q.w.w.6.6.6.6.w.6.6.6.8.1.1.2.:.2.1.;.:.>.2.:.:.;.=.1.:.;.=.:.;.*.*.*.=.:.=.=.=.<.",
"8.9.8.9.9.9.3.2.8.3.3.8.8.9.9.9.0.q.6.6.q.6.q.6.6.6.q.6.6.6.q.6.6.6.6.<.:.<.:.<.<.,.<.:.>.;.;.,.;.>.:.,.-.;.*. .=.O. .=. .=.O.,.",
"9.8.w.w.9.3.3.2.2.9.3.8.w.w.8.q.w.q.w.w.6.0.0.6.6.6.q.6.0.q.6.0.0.6.6.5.=.,.2.<.,.6.6.<.<.:.=.-.<.:.,.5.1.,.=.=.=.=.-.O.O.:.:.O.",
"8.9.w.8.w.9.3.8.9.3.2.9.w.w.w.6.q.w.w.6.0.q.5.6.6.4.6.5.6.6.6.6.4.5.-.%.,.1.6.<.1.5.1.,.=.*.=.$.=.=.<.<.4.4.=.=.;.;.=.=.4.<.O.:.",
"9.8.3.8.9.9.8.6.8.8.8.8.6.6.6.6.4.4.-.,.4.-.-.-.1.<.O.O.$.-.&.O.#.O.&.-.-.=.-.1.,.=.$.$.O. .O.O.$.:.:.;.,.,.=.=.:.>.>. .O.O. .>.",
"9.6.3.8.8.9.9.2.2.2.8.2.6.2...o.o.( ( ) ~ ~ ) / T ] ( E ( ( E ( E T ) o.o.~ ^ ) T T P L L L I Y R T X.;.=.,.4.=.O.O.:.:.:. . . .",
"9.2.3.3.2.8.8.2.2.8.8.2.6.=.c g w g k z c D D c k c x x x x k x x x G G G x x k l u e w w , w t , , I ;.,.=.,.=.>.O.>. .:. . .:.",
"8.3.2.2.8.8.7.8.8.2.6.2.4. .g e > : ; 1 8 8 8 8 e , : 1 1 < < 0 0 0 0 0 0 0 < : < - : - ; o # - e w L =.=.-.=.=.:.:. .:. .:. . .",
"2.3.2.2.9.3.3.8.8.8.8.8.<.X.k g - o X X o # # $ $ $ $ $ $ @ $ @ @ @ % @ @ @ @ @ @ @ @ # + o X . , e I :.:.<. .:.O.2.O.:.O.:.O.>.",
"3.2.3.3.8.2.2.2.>.2.2.8.6. .k e $ o o O + # - $ $ & & & & & & & & & & & $ $ $ $ @ $ # # + o X . , e L O.-.O.:.2.O.O.<.O.:.O.>. .",
"3.3.2.2.2.2.>.>.>.>.2.6.5. .g k 8 > > > > : > 7 0 9 q q q q 9 q 9 9 9 0 9 8 7 2 8 3 3 : : - + o e s L  . .O.<.O.:. .>.,.:.O. .<.",
"3.8.2.>.2.8.>.:.>.:.3.8.<.} z x 7 o . X X X o # $ $ & & & & & < & < & & $ $ @ $ # # @ O o X X X y x ^ O.:.<.:. . . . .1.O. . .,.",
"3.2.>.>.2.2.:.:.:.<.2.2.,.] c x 0 ; ; ; : > > 3 2 7 8 8 8 8 7 0 0 0 7 9 7 7 8 2 1 : : - # + o o y s L &.O.:.O. .:.O.O.<.O.O.O.:.",
"2.>.2.2.2.2.2.:.:.2.2.6.<...k s < - * * ; : > : : : 7 8 7 7 < 7 0 7 7 7 7 2 & : < - - + # o o X y s D &.<. .:.O. .O.1.O.2.4.O.O.",
":.2.2.>.2.1.>.>.>.2.<.6.&./ u r < * ; : > > 8 8 8 8 7 8 7 7 7 7 7 7 7 7 2 2 & $ : : > - + * o X 0 a L #.-.O. .O.:.O.-.O.4.:.<.O.",
"2.2.:.:.1.2.1.:.:.:.1.1.$.R t 8 # o o - - > 3 2 7 7 7 7 8 7 0 0 7 7 7 7 & 7 & 2 : : : : + o o . 1 a D #.:.O.:.:.O.:.:. .O.O.:.O.",
"2.:.:.:.:.3.1.;.;.<.2.:.@.V t 8 # X + + - ; - - : < - & < $ & & $ $ $ $ $ $ - $ # - * * o X .   0 y c O.$.$.%.&.#.#.%.#.+.+.+.+.",
"<.;.:.;.*.:.1.;.;.:.<.*.+.Z t , # o o o - > : - < 1 < < < 7 7 7 7 7 7 7 & 7 7 < : : - - o X . . 1 y L O.$.+.;.%.#.#.$.| +.+.| | ",
">.:.*.*.;.>.;.;.<.;.:.:.@.A t , O     . X o O # o @ @ @ @ @ @ @ @ @ @ $ @ @ @ + + O X . .       1 r L =.@.$.$.#.$.#.+.+.+.+.+.+.",
":.:.:.;.<.;.;.1.1.<.;.:.@.B 4 ; + o # # - : : : < 1 < < 7 7 7 7 8 0 8 8 7 8 1 : > : - o o X X X ; w L =.&.%.#.$.#.$.| | +.| +.+.",
":.*.;.:.;.;.;.<.;.:.=.;.@.B 4 > o . . . . X . X . X X X o O @ O @ @ @ @ # X X o X X . . .   X X - w N *.%.O. .$.+.+.+.[ } +.+.| ",
":.;.%.*.;.;.;.=.$.=.<.,.@.V 4 ; # o * * - # o @ # # < - < 7 0 0 8 8 8 7 < & # # - - # - - + + o * ; z | O.O.#. .} } | +.| } } +.",
";.;.=.=.;.;.$.$.@.@.<.<.$.R 4 ; : < 1 < % % % % % % < < < 0 7 7 0 & & & & & % @ # + # # + # O o * - z {  .$.O. .} } | +.+.} +.+.",
";.;.=.=.%.;.$.@.$.$.,.,.=.! t * ; ; > - ; ; ; 1 , 1 w w w y a u p p p p y y y y w , , w ; ; > = ; % l } O.O. . .+.+.} +.} +.| +.",
":.*.;.;.*.=.;.%.$.=.;.;.<.} t + X o o o ; ; ; ; , , , = ; ; ; ; & 2 7 2 2 8 3 3 = = 4 = = o + + = = j }  . .@. .} } +.}  .+.+.+.",
"%.;.;.%.;.$.%.;.;.;.&.<.=. .Z j g j v n L I N V V V A N n b z z M Y P B R W S m v j f f 5 3 5 5 6 j S } }  .|  .+.| } } +. .#.+.",
"=.*.$.$.=.=.$.*.*.%.=.;.$.{ [ W V V Y Q ] ] ' ' |  .[ S R ' R V ! | } {  . .} W N N v j j f f h n Z } } [ |  .} [ } [ |  .} | +.",
";.%.@.$.$.;.=.$.$.=.&.+. .' ' { ' R Y [ ' ' ' R {  .' R ' ' R N [ } | | } } } ! N B n j n h f j N S [ } [ }  .} [ } +.| [ } | | ",
";.$.@.@.@.*.*.+.@.%.*.+.+./ / | ' V V { ] ' ' I ' { T R R { ' L } { | O.} } | ] B V B v N j f v V Q [ } } [ | | } } | } [ [ } } ",
"*.%.*.@.$.=.@.+.$.+.$.+.+.} } +.' V R ] ] ' ' ' ] { R R R { ] R } {  .| | X.} { R W Z N V j v n Z ! }  .} } | |  .| } }  .} } | ",
"@.=.=.@.*.+.+.=.%.$.$.=.@.+.+.{ R V ' { { | } ' } ..' ' ' ' ] ' } } X.| #. .O.{ ' ! S Z B v n N W ' } | }  .|  . . .} } | } } | ",
"@.@.@.@.+.+.+.+.+.$.@.$.;.+.} { R R R { } } | } { | ' R ' ' ] ' } } } #.#.} X.| ' [ Q Z B m m B W S [  . .} }  .} } | [ [  .} [ ",
"@.@. . . . . . .| #.%.$.$.#.| | Q R W } #.| } { +.+./ ! / / { / } } #.#.} { | | { ] ^ A Z B N B Q ] } } { } | | | } } | { [ } } ",
"@.*. . . .@. . .| +.%.%.#.#.#.#.W R W [ #.#.} / #.@./ ! } } | / }  .#.| ..{ { | { ] ^ ^ ^ B B V Q } } { { X.| { } [ [ | { ' [ } ",
"*.@. .@.@.@.|  . .| $.#.#.#.#.#.] Q W / X.../ { +.+./ +./ +.../ X.X.O.{ { { ] { ] / ! Q Q V A A Q } } { { } } ] { [ ' } ] { { } ",
"$. .@. . .@. .| } +.+.#.#.#.| #.| ] ! { | #.#.#./ +./ +./ / ! } #.X.X.X.X.{ { ] ] { ] Q Q A A V ' } { O.} ] { { [ ] { [ } } } [ ",
" .#.O. .#.+.|  .+.+.| +.#.#.#.+.X.{ }  .+.#./ #.+.} #.} #.W C #.O.} ..X.O.X.{ ] } { Q ! Q W W W ' ' } } } } ] { } ] ] ' } { } { ",
"@. .} } | +.| |  .| #.#.+.| #.X.{ { } { #.+./ / / #.#./ #./ Q / X.} O.} } } { ] { ! W Q Q W A Z ' { { ' ' } } ] ] ] ' { ] ] { } ",
"$.} ] } } +.+.} } | +.| | { X.#.O.] ' } +./ } / / +./ / ..{ ! ! { ..O.O.{ { } } [ ! Q Q ! Q Y Y ! ] ' ! ' ] } { ' ' ] { ] ' ] ' ",
" .} } { { | +.} | | | } } } } #.| } ] { +./ } / +.+.` / ..| W ! { { X.O.} { } | ' ' ! ! / Q ~ W ' ' ' ' ' ' } } ] ] ] ' ! ' ' ' ",
" .O.| } | | { } | | #.| | } } | } } | } +.} { } | { / ` } { / / { } } } } | { } } / / / Q Q Q / / [ [ [ ' ' { { ] ] [ ' ' ] / / ",
"| +.+.| X.| { | | | | +.#.| +.} }  .| | } +.} | | / { | #./ { / ] } | ..} | X.{ } { { { W Q / [ [ Q ' [ [ } [ [ { } ' ' [ / [ ! ",
"| |  . .| | #.| } +.} } | +.} | O.} } | { | | } / } | | | } ` / / [ } X...{ ..} / } { / ! Q ! W [ Q ! [ { [ { } ' ' { ! / [ / ! ",
"X.| } { { X.X.| { } +.| } } } } } { { } | } { / { #./ { { | [ / / [ ..X.[ [ [ | } / [ [ [ ! ! W Q / ! ! / ' } ' ' ! ! ! ! S ! ! ",
"X.X.{ { | X.{ ] [ [ | | } { { [ ! ! / [ | { / / | { ! / { { X./ ] { X./ / / / { | / / } { Q ! ! ! [ [ ! ' ' { Q Q Q Q ' ! Q Q ! ",
"} } { { } | [ [ [ ' { } { { { { / ! ! / / / ! ! [ / ! / [ [ { / / { } { [ { / [ / / / { / W ! ! ! [ ' Q ! ' ! Q Q Q Q ! S W W Q ",
"} { { } } { { { { { [ { } { [ [ [ ! / [ ! / / { / / / / / [ / / / [ [ } { / / / / / / { ! Q Q ! ' ! / [ ' Q Q Q S Q Q R W ! W W ",
"' } { { } ' [ { { [ Q { { { { / ! W / ! Q { [ { / Q [ { [ ! / / / ..{ / { / [ / { } / { Q Q / [ S ! [ / Q ' S Q Q Q R Z W Q Q Q ",
"' } ! Q { { [ [ [ ! ! [ / / { / W ! / Q / / ! / / [ / [ / Q [ / Q / { { / { / { ../ ! ! ! Q / / ' ! [ ! W Q Q S Q Q A Q Q R Q Q ",
"' ' Q Q ! { { ! ! [ } ! / / [ [ Q W W Q / ! W ! [ { ! ! / / [ Q S Q ` { / ! / } { / W ! ! ! W W S [ ! Q W Q ! Q Q R S Q A R R R ",
"} S Q Q ! ! { ! Q { { Q / Q / { / Q Q { / ! Q Q / { / ! / { ! ! ! W / } / / / { / / Q W W ! W Q ! ! S Q W W / W R Q Q Q A S S Q ",
"[ ' ! Q ! / Q ! / / [ ! Q / ! / Q / / / / / ! Q / { ! / ! [ ! ! / ! / / / } / { / / ! ! ! W W ! W Q W S S W W W Q Q S S ' R Q S ",
"S [ ! ! ! S Q / / / Q / / / / W Q ! / { / [ / / / Q / [ / ! ! / ! / / / [ { { ! [ / / [ ! E W W W W Q W W W Y W ' ' Q R S A S ' ",
"S S Q S Q W Q W W ! Q / [ / Q W ! Q W W Q ! / / Q Q Q Q Q ! ! ! / / Q / / ( / ! ! / [ / W W S W W W ~ W Y U W W A S A V A ' A A ",
"[ ! S W S ! ! W E Q ! ! / Q Q / Q S S ! / ! Q Q / / S S Q / W Q Q W ! ! W W W ! / ( ! Q W Q W U W W Y Y U U W Y A A R R R R A Q ",
"[ ' Q W ! [ Q Q W W ! Q W W / ! S S U S / ! W Q [ [ Q S W W Q E Y S [ ! W S W W / W S Q Q W U U W W W Y Y W W U V B B R R Z R ! ",
"! ! Q W ! ! W Q W Y Q ! W W ! ! S E S S / ! S Q / ! S E S S Q E W E / Q S W S E E W W W W W W W U W W C Y Z W U I P P R R R R W ",
"W W Q ! W W Q W W W W W ! W W W Q S S ! Q W Q Q W ! Q W Y U S Q ! Q Q Q W W S S W W W U Y E U W U U W W W E W Y U U Y Y R R R R ",
"C W Q W Q W W W W W Z Q Q W S Y S W Q Q W ! W W Q S S W S U S / ! ! Q Q W W W S W ! W Q Y U Y Y U Y Y W P W Y U U Y Y Z Q R R R ",
"Y W W W W W W W W W W Q W Y C W W Q W W ! S W U W W S S S S S W S S S S E W W Q ! Q W W W W Y U M W E K K m M P U R V R R R I R ",
"W W W W W / ! W W W ! W Y Z S Q W W W Q Q S C U W / W S U S W S S W S E S S E ! W W E S Q W U U U W P M K K P P B V Z W R V V A ",
"Q S S W W Q Q S W W W Z Y Z Z Q W Y U W S C U U S ! Q S S Y S S S W S / S Y S Q W W Y Y W Q Y U W U K M B P Y K P Y Y W Z B V V ",
"S W W W W W W S W W W Z W C C W E S W U S W S U S S S S U S S Y S S Y S S S E S W W U U W W W W W S W M C P Y U Y R Y Z Z Z R A ",
"S S Y Y S Y Y W W U C W C U Z C S W S S S S U S U C S S S S S S Y S S Y Q ! W S U W W W U W W W W C Y C B C P Z S S Y V A A A A "
};
